!!!COM: Ludwig van Beethoven
!!!OTL: String Quartet No. 1
!!!system-decoration: [(s1,s2,s3,s4)]
**kern	**kern	**kern	**kern	**dynam	**kern	**kern	**kern	**kern	**dynam	**kern	**kern	**kern	**kern	**dynam	**kern	**kern	**kern	**kern	**dynam
*part4	*part4	*part4	*part4	*part4	*part3	*part3	*part3	*part3	*part3	*part2	*part2	*part2	*part2	*part2	*part1	*part1	*part1	*part1	*part1
*staff16	*staff15	*staff14	*staff13	*	*staff12	*staff11	*staff10	*staff9	*	*staff8	*staff7	*staff6	*staff5	*	*staff4	*staff3	*staff2	*staff1	*
*I"Violoncello	*	*	*	*	*I"Viola	*	*	*	*	*I"Violino II	*	*	*	*	*I"Violino I	*	*	*	*
*clefF4	*	*clefC3	*	*clefG2	*	*clefG2	*
*k[b-]	*	*k[b-]	*	*k[b-]	*	*k[b-]	*
*M3/4	*	*M3/4	*	*M3/4	*	*M3/4	*
[(>4F	p	[(<4F	p	[(<4f	p	[4f	p
8FL]	.	8FL]	.	8fL]	.	(<8fL_	.
16G	.	16G	.	16g	.	16g	.
16FJ)	.	16FJ	.	16fJ	.	16fJ)	.
8E'>L	.	8E'<L)	.	8e'<L)	.	8e'<L	.
8F'>J	.	8F'<J	.	8f'<J	.	8f'<J	.
=2	=2	=2	=2	=2	=2	=2	=2
4C	.	4C	.	4c	.	4c	.
4r	.	4r	.	4r	.	4r	.
4r	.	4r	.	4r	.	4r	.
=3	=3	=3	=3	=3	=3	=3	=3
[(>4F	.	[4F	.	[(<4f	.	[4f	.
8FL]	.	(<8FL_	.	8fL]	.	(<8fL_	.
16G	.	16G	.	16g	.	16g	.
16FJ)	.	16FJ)	.	16fJ	.	16fJ)	.
8E'>L	.	8E'<L	.	8e'<L)	.	8e'<L	.
8F'>J	.	8F'<J	.	8f'<J	.	8f'<J	.
=4	=4	=4	=4	=4	=4	=4	=4
4D	.	4D	.	4d	.	4d	.
4r	.	4r	.	4r	.	4r	.
4r	.	4r	.	4r	.	4r	.
=5	=5	=5	=5	=5	=5	=5	=5
(>2.D	<	(>2.d	.	[2.b	.	[4ff	<
.	.	.	<	.	<	(>8ffL_	.
.	.	.	.	.	.	16gg	.
.	.	.	.	.	.	16ffJ	.
.	.	.	.	.	.	8ee'>L)	.
.	[	.	[	.	[	8ff'>J	[
=6	=6	=6	=6	=6	=6	=6	=6
2.E)	>	2.c)	.	(>2b_	>	(>2gg	.
.	]	.	]	4g)	]	4b)	.
=7	=7	=7	=7	=7	=7	=7	=7
(>4F	.	(>4c_	.	(>2f	.	(>2a	.
4D	.	4d	.	.	.	.	.
4BB)	.	4G)	.	8.bL	.	8.ddL)	.
.	.	.	.	16gJ)	.	16bJ	.
=8	=8	=8	=8	=8	=8	=8	=8
2.C	.	(>8cL	.	(<2f	.	(<2a	.
.	.	8Bn	.	.	.	.	.
.	.	8c	.	.	.	.	.
.	.	8BJ	.	.	.	.	.
.	.	4c)	.	4e)	.	4g)	.
=9	=9	=9	=9	=9	=9	=9	=9
[(>4F	f	[4F	f	[(<4f	f	[4f	f
8FL]	.	(<8FL_	.	8fL]	.	(<8fL_	.
16G	.	16G	.	16g	.	16g	.
16FJ)	.	16FJ)	.	16fJ	.	16fJ)	.
8E'>L	.	8E'<L	.	8e'<L)	.	8e'<L	.
8F'>J	.	8F'<J	.	8f'<J	.	8f'<J	.
=10	=10	=10	=10	=10	=10	=10	=10
4C	.	4C	.	4c	.	4c	.
4r	.	4r	.	4r	.	4r	.
4r	.	4r	.	4r	.	4r	.
=11	=11	=11	=11	=11	=11	=11	=11
[(>4F	.	[4F	.	[(<4f	.	[4f	.
8FL]	.	(<8FL_	.	8fL]	.	(<8fL_	.
16G	.	16G	.	16g	.	16g	.
16FJ)	.	16FJ)	.	16fJ	.	16fJ)	.
8E'>L	.	8E'<L	.	8e'<L)	.	8e'<L	.
8F'>J	.	8G'<J	.	8f'<J	.	8f'<J	.
=12	=12	=12	=12	=12	=12	=12	=12
4D	.	4D	.	4d	.	4d	.
4r	.	4r	.	4r	.	4r	.
4r	.	4r	.	4r	.	4r	.
=13	=13	=13	=13	=13	=13	=13	=13
2.r	.	2.r	.	2.r	.	[4ff	p
.	.	.	.	.	.	(>8ffL_	.
.	.	.	.	.	.	16gg	.
.	.	.	.	.	.	16ffJ)	.
.	.	.	.	.	.	8ee'>L	.
.	.	.	.	.	.	8ff'>J	<
=14	=14	=14	=14	=14	=14	=14	=14
2.c#	<	2.b	p	2.ee	p	(>2aa	<
.	]	.	.	.	>	4gg)	[
=15	=15	=15	=15	=15	=15	=15	=15
2.r	.	2.r	.	2.r	]	[4gg	.
.	.	.	.	.	.	(>8ggL_	.
.	.	.	.	.	.	16aa	.
.	.	.	.	.	.	16ggJ)	.
.	.	.	.	.	.	8ff#'>L	.
.	.	.	.	.	.	8gg'>J	.
=16	=16	=16	=16	=16	=16	=16	=16
2.f#	<	2.ee-	<	2.cc	<	(>2bb	<
.	]	.	]	.	]	4aa)	]
=17	=17	=17	=17	=17	=17	=17	=17
2.r	.	2.r	.	2.r	.	[4aa	.
.	.	.	.	.	.	(>8aaL_	.
.	.	.	.	.	.	16bb	.
.	.	.	.	.	.	16aaJ)	.
.	.	.	.	.	.	8gg'>L	.
.	.	.	.	.	.	8aa'>J	.
=18	=18	=18	=18	=18	=18	=18	=18
!LO:TX:iB:t=Cresc.	!	!LO:TX:iB:t=Cresc.	!	!LO:TX:iB:t=Cresc.	!	!LO:TX:iB:t=Cresc.	!
4.B	.	(>4.f#	.	(>4.ee-	.	(>4.ccc	.
(>8B~>L	.	8gL	.	8ddL	.	8bbL	.
8B~>	.	8a)	.	8cc	.	8aa	.
8B~>J)	.	8bJ	.	8bJ)	.	8ggJ)	.
=19	=19	=19	=19	=19	=19	=19	=19
(>2c	.	(>2cc	.	(>2a	.	(>2ff	.
.	.	.	.	16qbL	.	.	.
.	.	.	.	16qa	.	.	.
.	.	.	.	16qg	.	.	.
.	.	.	.	16qaJ	.	.	.
.	.	.	.	.	.	16qggL	.
.	.	.	.	.	.	16qff	.
.	.	.	.	.	.	16qee	.
.	.	.	.	.	.	16qffJ	.
4C)	.	4e)	.	8ccL	.	8aaL	.
.	.	.	.	8bJ	.	8ggJ)	.
=20	=20	=20	=20	=20	=20	=20	=20
4F	p	4f	p	4a)	p	4ff	p
4r	.	4r	.	4r	.	4r	.
4r	.	4r	.	4r	.	4r	.
=21	=21	=21	=21	=21	=21	=21	=21
2.r	.	2.r	.	[(<4c	.	2.r	.
.	.	.	.	8cL]	.	.	.
.	.	.	.	16d	.	.	.
.	.	.	.	16cJ)	.	.	.
.	.	.	.	8Bn'<L	.	.	.
.	.	.	.	8c'<J	.	.	.
=22	=22	=22	=22	=22	=22	=22	=22
2.Bn	sf	2.a-	sf	(<2e-	sf	(>4.ff	sf
.	.	.	.	.	.	16ggL	.
.	.	.	.	.	.	16ffJ)	.
.	.	.	.	4d)	.	8ee'>L	.
.	.	.	.	.	.	8ff'>J	.
=23	=23	=23	=23	=23	=23	=23	=23
2.r	.	2.r	.	[(<4d	.	2.r	.
.	.	.	.	8dL]	.	.	.
.	.	.	.	16e-	.	.	.
.	.	.	.	16dJ)	.	.	.
.	.	.	.	8c#'<L	.	.	.
.	.	.	.	8d'<J	.	.	.
=24	=24	=24	=24	=24	=24	=24	=24
2.C	sf	2.B	sf	(<2f	sf	(>4.gg	sf
.	.	.	.	.	.	16aaL	.
.	.	.	.	.	.	16ggJ)	.
.	.	.	.	4en)	.	8ff#'>L	.
.	.	.	.	.	.	8gg'>J	.
=25	=25	=25	=25	=25	=25	=25	=25
2.r	.	2.r	.	[(<4g	.	2.r	.
.	.	.	.	8gL]	.	.	.
.	.	.	.	16a	.	.	.
.	.	.	.	16gJ)	.	.	.
.	.	.	.	8f#'<L	.	.	.
.	.	.	.	8g'<J	.	.	.
=26	=26	=26	=26	=26	=26	=26	=26
2F	sf	2e-	sf	(>2b	sf	(>4.ccc	sf
.	.	.	.	.	.	16dddL	.
.	.	.	.	.	.	16cccJ)	.
4FF	.	4e	.	4a'<)	.	8bbn'>L	.
.	.	.	.	.	.	8ccc'>J	.
=27	=27	=27	=27	=27	=27	=27	=27
2B	sf	(>2f#	sf	(>2cc	sf	(>4.ddd	sf
.	.	.	.	.	.	16eee-L	.
.	.	.	.	.	.	16dddJ)	.
4BB	.	4g'>)	.	4b'>)	.	8ccc#'>L	.
.	.	.	.	.	.	8ddd'>J	.
=28	=28	=28	=28	=28	=28	=28	=28
4C'<	f	4B'<	f	(<8aL	f	4eee'>	f
.	.	.	.	8g)	.	.	.
4C'<	.	4B'<	.	(<8a	.	4eee'>	.
.	.	.	.	8g)	.	.	.
4C'<	.	4B'<	.	(<8a	.	4eee'>	.
.	.	.	.	8gJ)	.	.	.
=29	=29	=29	=29	=29	=29	=29	=29
4FF	p	8AL	p	8fL	.	4fff	.
.	.	8cJ	.	8A 8f	.	.	.
4r	.	8cL	.	8A 8f	.	4r	.
.	.	8c	.	8A 8f	.	.	.
4r	.	8c	.	8A 8f	.	4r	.
.	.	8cJ	.	8AJ 8f	.	.	.
=30	=30	=30	=30	=30	=30	=30	=30
(<4.C	.	8cL	.	2.A 2.f	p	4r	p
.	.	8c	.	.	.	.	.
.	.	8c	.	.	.	8r	.
16DL	.	8c	.	.	.	8a	.
16CJ)	.	.	.	.	.	.	.
8BBn'<L	.	8c	.	.	.	4aT	.
8C'<J	.	8cJ	.	.	.	.	.
.	.	.	.	.	.	16qgL	.
.	.	.	.	.	.	16qaJ	.
=31	=31	=31	=31	=31	=31	=31	=31
4CC	.	2.c	.	2.G 2.e	.	(>4.cc	.
4r	.	.	.	.	.	.	.
.	.	.	.	.	.	8bL)	.
4r	.	.	.	.	.	8g'<	.
.	.	.	.	.	.	8f'<J	.
=32	=32	=32	=32	=32	=32	=32	=32
4.C	.	2.c	.	2.G 2.e	.	4e	.
.	.	.	.	.	.	8r	.
16DL	.	.	.	.	.	8b	.
16CJ	.	.	.	.	.	.	.
8BBn'<L	.	.	.	.	.	4bT	.
8C'<J	.	.	.	.	.	.	.
.	.	.	.	.	.	16qaL	.
.	.	.	.	.	.	16qbJ	.
=33	=33	=33	=33	=33	=33	=33	=33
4CC	.	2.c	.	2.A 2.f	.	(>4.dd	.
4r	.	.	.	.	.	.	.
.	.	.	.	.	.	8ccL)	.
4r	.	.	.	.	.	8a'<	.
.	.	.	.	.	.	8g'<J	.
=34	=34	=34	=34	=34	=34	=34	=34
(<4.C	.	2.c	.	2.A 2.f	.	4f	.
.	.	.	.	.	.	8r	.
16DL	.	.	.	.	.	8ff	.
16CJ)	.	.	.	.	.	.	.
8BBn'<L	.	.	.	.	.	4ffT	.
8C'<J	.	.	.	.	.	.	.
.	.	.	.	.	.	16qeeL	.
.	.	.	.	.	.	16qffJ	.
=35	=35	=35	=35	=35	=35	=35	=35
4CC	.	2.e	.	2.B 2.g	.	(>4.aa	.
4r	.	.	.	.	.	.	.
.	.	.	.	.	.	8ggL)	.
4r	.	.	.	.	.	8gg'>	.
.	.	.	.	.	.	8ff'>J	.
=36	=36	=36	=36	=36	=36	=36	=36
(<4.C	.	2.e	.	2.B 2.g	.	(>8ffL	.
.	.	.	.	.	.	8eeJ)	.
.	.	.	.	.	.	8ee'>L	.
16DL	.	.	.	.	.	8dd'>	.
16CJ)	.	.	.	.	.	.	.
8BBn'<L	.	.	.	.	.	8cc'>	.
8C'<J	.	.	.	.	.	8b'>J	.
=37	=37	=37	=37	=37	=37	=37	=37
4C#'<	.	8eL	.	2.A 2.g	.	[2.a	.
.	.	8e	.	.	.	.	.
4AA'<	.	8c#	.	.	.	.	.
.	.	8c	.	.	.	.	.
4C'<	.	8e	.	.	.	.	.
.	.	8eJ	.	.	.	.	.
=38	=38	=38	=38	=38	=38	=38	=38
4D	.	8dL	.	2.A 2.f	.	8aL]	.
.	.	8d	.	.	.	(>16bn	.
.	.	.	.	.	.	16cc#J	.
4r	.	8d	.	.	.	16ddL	.
.	.	.	.	.	.	16ee	.
.	.	8d	.	.	.	16ff	.
.	.	.	.	.	.	16eeJ	.
4r	.	8d	.	.	.	16ddL	.
.	.	.	.	.	.	16ccn	.
.	.	8dJ	.	.	.	16b	.
.	.	.	.	.	.	16aJ)	.
=39	=39	=39	=39	=39	=39	=39	=39
4BBn	.	8dL	.	2.G 2.f	.	[2.g	.
.	.	8d	.	.	.	.	.
4GG'<	.	8Bn	.	.	.	.	.
.	.	8B	.	.	.	.	.
4BB'<	.	8d	.	.	.	.	.
.	.	8dJ	.	.	.	.	.
=40	=40	=40	=40	=40	=40	=40	=40
4C	.	8cL	.	2.G 2.e-	.	8gL]	.
.	.	8c	.	.	.	(<16a	.
.	.	.	.	.	.	16bnJ	.
4r	.	8c	.	.	.	16ccL	.
.	.	.	.	.	.	16b	.
.	.	8c	.	.	.	16cc	.
.	.	.	.	.	.	16bJ	.
4r	.	8c	.	.	.	16ccL	.
.	.	.	.	.	.	16b	.
.	.	8cJ	.	.	.	16cc	.
.	.	.	.	.	.	16bJ)	.
=41	=41	=41	=41	=41	=41	=41	=41
[2.AA-	pp	(<4.E-	pp	[2.c [2.e-	pp	[2.cc	pp
.	.	16FL	.	.	.	.	.
.	.	16EJ)	.	.	.	.	.
.	.	8D'<L	.	.	.	.	.
.	.	8E'<J	.	.	.	.	.
=42	=42	=42	=42	=42	=42	=42	=42
2.AA	.	2.E-	.	4c] 4e	.	(>4.cc_	.
.	.	.	.	(<4c'<	.	.	.
.	.	.	.	.	.	16dd-L	.
.	.	.	.	.	.	16ccJ)	.
.	.	.	.	4c'<)	.	8b'>L	.
.	.	.	.	.	.	8cc'>J	.
=43	=43	=43	=43	=43	=43	=43	=43
[2.BB	.	(<4.E-	.	(<2.d-	.	(>4.ee-	.
.	.	16FL	.	.	.	8dd-L)	.
.	.	16EJ	.	.	.	.	.
.	.	8D'<L)	.	.	.	8b'>	.
.	.	8E'<J	.	.	.	8a-'>J	.
=44	=44	=44	=44	=44	=44	=44	=44
2.BB]	.	2.E-	.	4d)	.	4g	.
.	.	.	.	(<4d-'<	.	8r	.
.	.	.	.	.	.	(>16ee-L	.
.	.	.	.	.	.	16dd-J)	.
.	.	.	.	4d'<)	.	8cc'>L	.
.	.	.	.	.	.	8dd'>J	.
=45	=45	=45	=45	=45	=45	=45	=45
[2.C	.	(<4.E-	.	[2.e-	.	(>4.ff	.
.	.	16FL	.	.	.	8ee-)	.
.	.	16EJ	.	.	.	.	.
.	.	8D'<L)	.	.	.	8cc'>L	.
.	.	8E'<J	.	.	.	8b'>J	.
=46	=46	=46	=46	=46	=46	=46	=46
4C'<]	.	4E-	.	4e	.	4a	.
!LO:TX:iB:t=Cresc.	!	!LO:TX:iB:t=Cresc.	!	!LO:TX:iB:t=Cresc.	!	!	!
4C'<	.	4a	.	(<4g-'<	.	8r	.
!	!	!	!	!	!	!LO:TX:iB:t=Cresc.	!
.	.	.	.	.	.	(>16ffL	.
.	.	.	.	.	.	16ee-J)	.
4C'<	.	4a	.	4g'<)	.	8dd'>L	.
.	.	.	.	.	.	8ee'>J	.
=47	=47	=47	=47	=47	=47	=47	=47
2.D	sf	2.Bn	sf	2.a-	sf	2.ff	sf
=48	=48	=48	=48	=48	=48	=48	=48
4E-'>	f	4c'>	f	4g'<	f	4ee-'>	f
4F'>	.	4f'>	.	4a-'<	.	4dd'>	.
4F#'>	.	4e-'>	.	4an'<	.	4cc'>	.
=49	=49	=49	=49	=49	=49	=49	=49
4G	p	4d	p	4g	.	16bnL	p
.	.	.	.	.	.	16g'<	.
.	.	.	.	.	.	16a'<	.
.	.	.	.	.	.	16b'<J	.
4r	.	8r	.	8r	.	16cc'>L	.
.	.	.	.	.	.	16dd'>	.
.	.	8Bn'<L	.	8d'<L	.	16ee'>	.
.	.	.	.	.	.	16ff#'>J	.
4r	.	8B'<	.	8d'<	.	16gg'>L	.
.	.	.	.	.	.	16ff'>	.
.	.	8c'<J	.	8e-'<J	.	16gg'>	.
.	.	.	.	.	.	16ff'>J	.
=50	=50	=50	=50	=50	=50	=50	=50
16G'<L	.	4B	.	4d	.	4gg	.
16GG'<	.	.	.	.	.	.	.
16AA'<	.	.	.	.	.	.	.
16BB'<J	.	.	.	.	.	.	.
16C'>L	.	8r	.	8r	.	8r	.
16D'>	.	.	.	.	.	.	.
16E'>	.	8g'>L	.	8dd'>L	.	8bbn'>L	.
16F#'>J	.	.	.	.	.	.	.
16G'>L	.	8g'>	.	8dd'>	.	8bb'>	.
16F'>	.	.	.	.	.	.	.
16G'>	.	8g'>J	.	8ee-'>J	.	8ccc'>J	.
16F'>J	.	.	.	.	.	.	.
=51	=51	=51	=51	=51	=51	=51	=51
4G	.	4g	.	4dd	.	16bbnL	.
!	!	!	!	!	!	!LO:TX:iB:t=Cresc.	!
.	.	.	.	.	.	16g	.
.	.	.	.	.	.	16a	.
.	.	.	.	.	.	16bnJ	.
4r	.	8r	.	8r	.	16ccL	.
.	.	.	.	.	.	16dd	.
.	.	8Bn'<L	.	8d'<L	.	16ee	.
.	.	.	.	.	.	16ff#J	.
!LO:TX:iB:t=Cresc.	!	!LO:TX:iB:t=Cresc.	!	!	!	!	!
4r	.	8B'<	.	8d'<	.	16ggL	.
.	.	.	.	.	.	16ff	.
.	.	8c'<J	.	8e-'<J	.	16gg	.
.	.	.	.	.	.	16ffJ	.
=52	=52	=52	=52	=52	=52	=52	=52
16G'<L	.	4Bn	.	4d	.	4gg	.
16GG'<	.	.	.	.	.	.	.
16AA'<	.	.	.	.	.	.	.
16BBn'<J	.	.	.	.	.	.	.
16CL	.	8r	.	8r	.	8r	.
16D'>	.	.	.	.	.	.	.
16E'>	.	8g'>L	.	8dd'>L	.	8bbn'>L	.
16F#'>J	.	.	.	.	.	.	.
16G'>L	.	8g'>	.	8dd'>	.	8bb'>	.
16F'>	.	.	.	.	.	.	.
16G'>	.	8g'>J	.	8ee-'>J	.	8ccc'>J	.
16F'>J	.	.	.	.	.	.	.
=53	=53	=53	=53	=53	=53	=53	=53
4G	.	4g	.	4dd	.	8bbn	.
.	.	.	.	.	.	16GL	.
!	!	!	!	!	!	!LO:TX:iB:t=Cresc.	!
.	.	.	.	.	.	16A	.
8r	.	8r	.	8r	.	16BnJ	.
.	.	.	.	.	.	16cL	.
!LO:TX:iB:t=Cresc.	!	!LO:TX:iB:t=Cresc.	!	!LO:TX:iB:t=Cresc.	!	!	!
8G'>L	.	8Bn'<L	.	8dd'>L	.	16d	.
.	.	.	.	.	.	16e	.
8G'>	.	8B'<	.	8dd'>	.	16f#J	.
.	.	.	.	.	.	16gL	.
8C'>J	.	8c'<J	.	8ee-'>J	.	16f	.
.	.	.	.	.	.	16gJ	.
=54	=54	=54	=54	=54	=54	=54	=54
16G'<L	ff	16BnL	ff	16ddL	ff	16gL	ff
16GG'<	.	16G	.	16G	.	16g	.
16AA'<	.	16A	.	16A	.	16a	.
16BBn'<J	.	16BJ	.	16BnJ	.	16bnJ	.
16C'>L	.	16cL	.	16cL	.	16ccL	.
16D'>	.	16d	.	16d	.	16dd	.
16E	.	16e	.	16e	.	16ee	.
16F#'>J	.	16f#J	.	16f#J	.	16ff#J	.
16GL	.	16gL	.	16gL	.	16ggL	.
16F'>	.	16f	.	16f	.	16ff	.
16G'>	.	16g	.	16g	.	16gg	.
16F'>J	.	16fJ	.	16fJ	.	16ffJ	.
=55	=55	=55	=55	=55	=55	=55	=55
4G	.	4g	.	4g	.	8gg	.
.	.	.	.	.	.	4gg	.
4r	.	4r	.	4r	.	.	.
.	.	.	.	.	.	4gg	.
4r	.	4r	.	4r	.	.	.
.	.	.	.	.	.	[8gg	.
=56	=56	=56	=56	=56	=56	=56	=56
2.r	.	2.r	.	2.r	.	8gg#	.
!	!	!	!	!	!	!LO:TX:iB:t=Decresc.	!
.	.	.	.	.	.	4gg	.
.	.	.	.	.	.	4gg	.
.	.	.	.	.	.	(>8gg	.
=57	=57	=57	=57	=57	=57	=57	=57
2.r	.	2.r	.	2.r	.	8aa)	p
.	.	.	.	.	.	(>8aaL	.
.	.	.	.	.	.	8ffJ)	.
.	.	.	.	.	.	(>8ffL	.
.	.	.	.	.	.	8ddJ)	.
.	.	.	.	.	.	(>8dd	.
=58	=58	=58	=58	=58	=58	=58	=58
2.r	p	4r	p	4r	.	8bn)	.
.	.	.	.	.	.	(<8bL	.
.	.	4r	.	4r	.	8gJ)	.
.	.	.	.	.	.	(<8gL	.
.	.	8f'>L	.	8g'<L	.	8bJ)	.
.	.	8fJ	.	[8gJ	.	(>8b	.
=59	=59	=59	=59	=59	=59	=59	=59
2.r	.	(>8e	.	8g]	.	8cc)	.
.	.	8eL	.	(<8gL	.	(>8ccL	.
.	.	(>8dJ)	.	(>8bnJ)	.	8ddJ)	.
.	.	8dL)	.	(>8bL	.	(>8ddL	.
.	.	8cJ	.	8ccJ))	.	8eeJ)	.
.	.	8c	.	8cc	.	(>8ee	.
=60	=60	=60	=60	=60	=60	=60	=60
2.r	.	2Bn	.	4ee	.	4gg	.
.	.	.	.	4dd	.	4ff)	.
.	.	(>8e'>L	.	4r	.	4r	.
.	.	8eJ	.	.	.	.	.
=61	=61	=61	=61	=61	=61	=61	=61
2.r	.	(>8f)	.	2.r	.	2.r	.
.	.	8fL	.	.	.	.	.
.	.	8dJ)	.	.	.	.	.
.	.	(>8dL	.	.	.	.	.
.	.	8BnJ)	.	.	.	.	.
.	.	(<8B	.	.	.	.	.
=62	=62	=62	=62	=62	=62	=62	=62
2.r	.	8G#)	.	4r	.	4r	.
.	.	(>8GL	.	.	.	.	.
.	.	(>8eJ)	.	4r	.	4r	.
.	.	8eL	.	.	.	.	.
.	.	8dJ)	.	4bn	.	4gg#	.
.	.	(>8d	.	.	.	.	.
=63	=63	=63	=63	=63	=63	=63	=63
2.r	.	8c)	.	4ee	.	4aa	.
.	.	(<8cL	.	.	.	.	.
.	.	8AJ)	.	4e	.	4ccc	.
.	.	(<8AL	.	.	.	.	.
.	.	8dJ)	.	[4cc	.	4ff#	.
.	.	(>8d	.	.	.	.	.
=64	=64	=64	=64	=64	=64	=64	=64
4r	.	8G)	.	(>4cc_	p	(>4aa	.
.	.	(>8GL	.	.	.	.	.
8r	.	8gJ)	.	8b)	.	8gg)	.
8F#L	.	8r	.	8r	.	8r	.
8G	.	4r	.	4r	.	4r	.
8G#J	.	.	.	.	.	.	.
=65	=65	=65	=65	=65	=65	=65	=65
(>8A'>	.	2.r	.	2.r	.	2.r	.
8AL)	.	.	.	.	.	.	.
8FJ	.	.	.	.	.	.	.
(>8FL	.	.	.	.	.	.	.
(>8DJ))	.	.	.	.	.	.	.
8D	.	.	.	.	.	.	.
=66	=66	=66	=66	=66	=66	=66	=66
8BBn	.	4r	.	4r	.	4r	.
(>8BBL	.	.	.	.	.	.	.
8GGJ)	.	4r	.	4r	.	4r	.
(>8GGL	.	.	.	.	.	.	.
(<8BBJ))	.	8G'<L	.	8d'<L	.	8ff'>L	.
8BB)	.	[8GJ	.	(<8dJ	.	(>8ffJ	.
=67	=67	=67	=67	=67	=67	=67	=67
8C	.	8G]	.	8e	.	8ee)	.
(<8CL	.	(>8gL	.	(>8ccL	.	(>8eeL	.
(>8DJ)	.	8fJ)	.	8bJ)	.	8ddJ)	.
8DL	.	(>8fL	.	(<8bL	.	(>8ddL	.
8EJ)	.	8eJ)	.	8gJ)	.	8ccJ)	.
8E	.	8e	.	8g	.	8cc'>	.
=68	=68	=68	=68	=68	=68	=68	=68
4.F	.	4.d	.	4.a-	.	(>4cc	.
.	.	.	.	.	.	8bn)	.
8r	.	8r	.	8r	.	8r	.
4r	.	4r	.	8g'<L	.	4r	.
.	.	.	.	(<8gJ	.	.	.
=69	=69	=69	=69	=69	=69	=69	=69
2.r	.	4r	.	8a-)	.	4r	.
.	.	.	.	(<8aL	.	.	.
.	.	8a-'>	.	8fJ)	.	4r	.
.	.	(>8aL	.	(<8fL	.	.	.
!	!	!	!	!	!	!LO:TX:iB:t=Cresc.	!
.	.	8fJ)	.	8dJ)	.	[4aa-	.
.	.	(>8f	.	(<8d	.	.	.
=70	=70	=70	=70	=70	=70	=70	=70
2.r	.	8d)	.	8BnL)	.	(>4aa	.
!LO:TX:a:iB:t=Cresc.	!	!LO:TX:iB:t=Cresc.	!	!	!	!	!
.	.	(>8dL	.	(<8BJ	.	.	.
.	.	8e-J)	.	8c)	.	4gg	.
.	.	(<8cL	.	(>4ee~>	.	.	.
.	.	8F#J)	.	.	.	4ccc)	.
.	.	(<8F	.	8ee'>)	.	.	.
=71	=71	=71	=71	=71	=71	=71	=71
2.r	.	8G)	.	(>2ee-	.	(>2ccc	sf
.	.	(>8GL	.	.	.	.	.
.	.	8gJ)	.	.	.	.	.
.	.	(>8gL	.	.	.	.	.
.	.	8GJ)	.	8.ffL)	.	8.dddL	.
.	.	8G	.	.	.	.	.
.	.	.	.	16ddJ	.	16bbnJ)	.
=72	=72	=72	=72	=72	=72	=72	=72
(>4.gg	p	8c	p	8ccL	p	4ccc	.
.	.	8CL	.	8GJ 8e	.	.	.
.	.	8C	.	8GL 8e	.	4r	.
16aaL	.	8C	.	8G 8e	.	.	.
16ggJ)	.	.	.	.	.	.	.
8ff#'>L	.	8C	.	8G 8e	.	4r	.
8gg'>J	.	8CJ	.	8GJ 8e	.	.	.
=73	=73	=73	=73	=73	=73	=73	=73
2.gg	.	8CL	.	8GL 8e	.	(>4.ee	p
.	.	8C	.	8GJ 8e	.	.	.
.	.	8C	.	8GL 8e	.	.	.
.	.	8C	.	8GJ 8e	.	16ffL	.
.	.	.	.	.	.	16eeJ)	.
.	.	8C	.	8GL 8e	.	8dd'>L	.
.	.	8CJ	.	8GJ 8e	.	8cc'>J	.
=74	=74	=74	=74	=74	=74	=74	=74
(>4.gg	.	2.D	.	2.G 2.f	.	4bn	.
.	.	.	.	.	.	4r	.
16aaL	.	.	.	.	.	.	.
16ggJ)	.	.	.	.	.	.	.
8ff#'>L	.	.	.	.	.	4r	.
8gg'>J	.	.	.	.	.	.	.
=75	=75	=75	=75	=75	=75	=75	=75
2.gg	.	2.D 2.G	.	2.Bn	.	(>4.ff	.
!	!	!	!	!	!	!LO:TX:iB:t=Cresc.	!
.	.	.	.	.	.	16ggL	.
.	.	.	.	.	.	16ffJ)	.
.	.	.	.	.	.	8ee'>L	.
.	.	.	.	.	.	8dd'>J	.
=76	=76	=76	=76	=76	=76	=76	=76
(>4.gg	.	2.E 2.G	.	2.B	.	4cc#	.
.	.	.	.	.	.	4r	.
!	!	!	!	!LO:TX:iB:t=Cresc.	!	!	!
16aaL	.	.	.	.	.	.	.
16ggJ)	.	.	.	.	.	.	.
8ff#'>L	.	.	.	.	.	4r	.
8gg'>J	.	.	.	.	.	.	.
=77	=77	=77	=77	=77	=77	=77	=77
2.bb	.	2.E	f	2.G 2.g	f	[(>4bb	f
.	.	.	.	.	.	8bbL]	.
.	.	.	.	.	.	16aa	.
.	.	.	.	.	.	16ggJ	.
.	.	.	.	.	.	16ffL	.
.	.	.	.	.	.	16ee	.
.	.	.	.	.	.	16dd	.
.	.	.	.	.	.	16cc#J)	.
=78	=78	=78	=78	=78	=78	=78	=78
4aa	fp	4F'<	fp	4A'<	fp	16dd'>L	fp
.	.	.	.	.	.	16a'>	.
.	.	.	.	.	.	16b'>	.
.	.	.	.	.	.	16cc#'>J	.
4F	.	4d'>	.	4f'< 4a'<	.	16ddL	.
.	.	.	.	.	.	16ee'>	.
.	.	.	.	.	.	16ff'>	.
.	.	.	.	.	.	16ee'>J	.
4r	.	4r	.	4r	.	16dd'>L	.
.	.	.	.	.	.	16a'>	.
.	.	.	.	.	.	16b'>	.
.	.	.	.	.	.	16cc'>J	.
=79	=79	=79	=79	=79	=79	=79	=79
2.r	.	2.r	.	2.r	.	16ddL	.
.	.	.	.	.	.	16ee	.
.	.	.	.	.	.	16ff	.
.	.	.	.	.	.	16eeJ	.
.	.	.	.	.	.	16ddL	.
.	.	.	.	.	.	16a	.
.	.	.	.	.	.	16bn	.
.	.	.	.	.	.	16cc#J	.
.	.	.	.	.	.	16ddL	.
.	.	.	.	.	.	16ee	.
.	.	.	.	.	.	16ff	.
.	.	.	.	.	.	16eeJ	.
=80	=80	=80	=80	=80	=80	=80	=80
4r	.	4r	.	4r	.	16ddL	.
.	.	.	.	.	.	16a	.
.	.	.	.	.	.	16b	.
.	.	.	.	.	.	16cc#J	.
4r	.	4r	.	4r	.	16ddL	.
.	.	.	.	.	.	16ee	.
.	.	.	.	.	.	16ff	.
.	.	.	.	.	.	16eeJ	.
16r	.	16r	.	16r	.	16ddL	.
!	!	!LO:TX:iB:t=Cresc.	!	!LO:TX:iB:t=Cresc.	!	!	!
16AAL	.	16AL	.	16AL	.	16a	.
!LO:TX:a:iB:t=Cresc.	!	!	!	!	!	!LO:TX:a:iB:t=Cresc.	!
16BBn	.	16Bn	.	16Bn	.	16b	.
16C#J	.	16c#J	.	16c#J	.	16ccJ	.
=81	=81	=81	=81	=81	=81	=81	=81
16DL	.	16dL	.	16dL	.	16ddL	.
16E	.	16e	.	16e	.	16ee	.
16F	.	16f	.	16f	.	16ff	.
16GJ	.	16gJ	.	16gJ	.	16ggJ	.
16AL	.	16aL	.	16aL	.	16aaL	.
16G	.	16g	.	16g	.	16gg	.
16F	.	16f	.	16f	.	16ff	.
16EJ	.	16eJ	.	16eJ	.	16eeJ	.
16DL	.	16dL	.	16dL	.	16ddL	.
16C	.	16c	.	16c	.	16cc	.
16BBn	.	16Bn	.	16A	.	16bn	.
16AAJ	.	16AJ	.	16BnJ	.	16aJ	.
=82	=82	=82	=82	=82	=82	=82	=82
(>4.GG	f	4.G	f	(<4.G	f	2.g	f
16AAL	.	(<16AL	.	16AL	.	.	.
16BBnJ	.	16BnJ	.	16BnJ	.	.	.
16CL	.	16cL	.	16cL	.	.	.
16D	.	16d	.	16d	.	.	.
16E	.	16e	.	16e)	.	.	.
16F#J	.	16f#J)	.	16f#J	.	.	.
=83	=83	=83	=83	=83	=83	=83	=83
8GL)	.	8gL	.	8gL	.	2.ddT	.
8G	.	8f	.	8bn	.	.	.
8G	.	8f	.	8b	.	.	.
8G	.	8f	.	8b	.	.	.
8G	.	8f	.	8b	.	.	.
8GJ	.	8fJ	.	8bJ	.	.	.
.	.	.	.	.	.	(<16qccL	.
.	.	.	.	.	.	16qddJ)	.
=84	=84	=84	=84	=84	=84	=84	=84
4C'<	fp	4e	fp	4cc	.	4cc	fp
4r	.	(<4.E	.	4.G	.	(<4.c	.
4r	.	.	.	.	.	.	.
.	.	8D)	.	8G	.	8Bn)	.
=85	=85	=85	=85	=85	=85	=85	=85
2.r	.	(<8DL	.	(<8GL	.	(<8BnL	.
.	.	8Bn)	.	8dJ)	.	8fJ)	.
.	.	(<8B	.	(<8dL	.	(<8fL	.
.	.	8c)	.	8cJ)	.	(>8eJ)	.
.	.	(<8c	.	(<8cL	.	8eL	.
.	.	8FJ)	.	8cJ)	.	8aJ)	.
=86	=86	=86	=86	=86	=86	=86	=86
2.r	.	(<8FL	.	8cL	.	(<8aL	.
.	.	8E)	.	8c	.	8gJ)	.
.	.	(<8E	.	(<8c	.	(<8gL	.
.	.	8e)	.	8g)	.	(>8ccJ)	.
.	.	(<8e	.	(<8g	.	8ccL	.
.	.	8dJ)	.	8fJ)	.	8bnJ)	.
=87	=87	=87	=87	=87	=87	=87	=87
2.r	.	(>8dL	.	(<8fL	.	(<8bnL	.
.	.	8BnJ)	.	8dJ)	.	8ffJ)	.
.	.	4B	.	4d	.	4ff	.
.	.	4r	.	4r	.	4r	.
=88	=88	=88	=88	=88	=88	=88	=88
2.r	.	2.r	.	2.r	.	2.r	.
=89	=89	=89	=89	=89	=89	=89	=89
2.c	p	2.g	p	2.cc	p	(>4.ee	p
!	!	!	!	!	!	!LO:TX:iB:t=Cresc.	!
.	.	.	.	.	.	16ffL	.
.	.	.	.	.	.	16eeJ)	.
.	.	.	.	.	.	8dd'>L	.
.	.	.	.	.	.	8ee'>J	.
=90	=90	=90	=90	=90	=90	=90	=90
[2.F#	fp	[2.d	fp	[(>2.cc	fp	[2.aa	fp
=91	=91	=91	=91	=91	=91	=91	=91
(>4F_	.	(>4d_	.	4cc]	.	(>4aa__	.
4G'>)	.	4e'>)	.	4cc'>)	.	4gg'>)	.
4GG'<	.	4d'>	.	4f'<	.	4bn'>	.
=92	=92	=92	=92	=92	=92	=92	=92
4C'<	fp	4c'>	fp	(<4e'<	fp	4cc'>	fp
4r	.	(>4.e	.	4.g	.	(>4.cc	.
4r	.	.	.	.	.	.	.
.	.	8d)	.	8f)	.	8bn)	.
=93	=93	=93	=93	=93	=93	=93	=93
2.r	.	(>8dL	.	(<8fL	.	(>8bnL	.
.	.	8Bn)	.	8d)	.	8ff)	.
.	.	(>8B	.	(<8d	.	(>8ff	.
.	.	(>8c)	.	8e)	.	8ee)	.
.	.	8c	.	(<8e	.	(>8ee	.
.	.	8fJ)	.	8ccJ)	.	8aaJ)	.
=94	=94	=94	=94	=94	=94	=94	=94
2.r	.	(>8fL	.	8cc'>L	.	(>8aaL	.
.	.	8e)	.	(>8cc'>	.	8gg)	.
.	.	(>8e	.	8cc	.	(>8gg	.
.	.	8ee)	.	(>8gg)	.	8ccc)	.
.	.	(>8ee	.	8gg	.	(>8ccc	.
.	.	8ddJ)	.	8ffJ)	.	8bbnJ)	.
=95	=95	=95	=95	=95	=95	=95	=95
2.r	.	(>8ddL	.	8ffL	.	(>8bbnL	.
.	.	8bnJ)	.	8ddJ	.	8fffJ)	.
.	.	4b	.	4dd	.	4fff	.
.	.	4r	.	4r	.	4r	.
=96	=96	=96	=96	=96	=96	=96	=96
2.r	.	2.r	.	2.r	.	2.r	.
=97	=97	=97	=97	=97	=97	=97	=97
2.C	sf	2.c	sf	2.G	sf	2.c 2.e-	sf
=98	=98	=98	=98	=98	=98	=98	=98
2.AA-	sf	2.A-	sf	2.A-	sf	2.c 2.e-	sf
=99	=99	=99	=99	=99	=99	=99	=99
2FF#	sf	2F#	sf	2A	sf	2c 2e-	sf
4FFn	.	4Fn	.	4A	.	4c 4e	.
=100	=100	=100	=100	=100	=100	=100	=100
4EE'<	ff	4E	ff	4A'<	ff	4c 4e	ff
4DD'<	.	(<4A'<	.	(<4d'<	.	(<4f'<	.
4GG'<	.	4F'<)	.	4Bn'<)	.	4d'<)	.
=101	=101	=101	=101	=101	=101	=101	=101
(>4.C	p	8EL	p	8cL	p	4c	.
.	.	8c	.	8G 8e	.	.	.
.	.	8c	.	8G 8e	.	4r	.
16DL	.	8c	.	8G 8e	.	.	.
16CJ)	.	.	.	.	.	.	.
8BBn'<L	.	8c	.	8G 8e	.	4r	.
8C'<J	.	8cJ	.	8GJ 8e	.	.	.
=102	=102	=102	=102	=102	=102	=102	=102
4CC	.	2.c	.	2.G 2.e	.	4r	p
4r	.	.	.	.	.	4ee	.
4r	.	.	.	.	.	4eeT	.
.	.	.	.	.	.	16qddL	.
.	.	.	.	.	.	16qeeJ	.
=103	=103	=103	=103	=103	=103	=103	=103
(>4.C	.	2.d	.	2.G 2.f	.	(>4gg	.
.	.	.	.	.	.	4ff)	.
16DL	.	.	.	.	.	.	.
16CJ)	.	.	.	.	.	.	.
8BBn'<L	.	.	.	.	.	4r	.
8C'<J	.	.	.	.	.	.	.
=104	=104	=104	=104	=104	=104	=104	=104
4CC	.	2.d	.	2.G 2.f	.	4r	.
4r	.	.	.	.	.	4bbn	.
4r	.	.	.	.	.	4bbT	.
.	.	.	.	.	.	16qaaL	.
.	.	.	.	.	.	16qbbJ	.
=105	=105	=105	=105	=105	=105	=105	=105
(<16DL	.	2.c	.	2.G 2.e	.	(>8cccL	.
16C	.	.	.	.	.	.	.
16BBn	.	.	.	.	.	8eeeJ)	.
16CJ)	.	.	.	.	.	.	.
(<16DL	.	.	.	.	.	4gg	.
16C	.	.	.	.	.	.	.
16BB	.	.	.	.	.	.	.
16CJ)	.	.	.	.	.	.	.
(<16DL	.	.	.	.	.	4r	.
16C	.	.	.	.	.	.	.
16BB	.	.	.	.	.	.	.
16CJ)	.	.	.	.	.	.	.
=106	=106	=106	=106	=106	=106	=106	=106
4CC	.	2.c	.	2.G 2.e	.	(>16ffL	.
.	.	.	.	.	.	16ee	.
.	.	.	.	.	.	16dd	.
.	.	.	.	.	.	16eeJ)	.
4r	.	.	.	.	.	(>16ffL	.
.	.	.	.	.	.	16ee	.
.	.	.	.	.	.	16dd	.
.	.	.	.	.	.	16eeJ)	.
4r	.	.	.	.	.	(>16ffL	.
.	.	.	.	.	.	16ee	.
.	.	.	.	.	.	16dd	.
.	.	.	.	.	.	16eeJ)	.
=107	=107	=107	=107	=107	=107	=107	=107
(<16DL	.	2.d	.	2.G 2.f	.	(>4gg	.
16C	.	.	.	.	.	.	.
16BBn	.	.	.	.	.	.	.
16CJ)	.	.	.	.	.	.	.
(<16DL	.	.	.	.	.	4ff)	.
16C	.	.	.	.	.	.	.
16BB	.	.	.	.	.	.	.
16CJ)	.	.	.	.	.	.	.
(<16DL	.	.	.	.	.	4r	.
16C	.	.	.	.	.	.	.
16BB	.	.	.	.	.	.	.
16CJ)	.	.	.	.	.	.	.
=108	=108	=108	=108	=108	=108	=108	=108
4CC	.	2.d	.	2.G 2.f	.	(>16cccL	.
.	.	.	.	.	.	16bbn	.
.	.	.	.	.	.	16aa	.
.	.	.	.	.	.	16bbJ)	.
4r	.	.	.	.	.	(>16cccL	.
.	.	.	.	.	.	16bb	.
.	.	.	.	.	.	16aa	.
.	.	.	.	.	.	16bbJ)	.
4r	.	.	.	.	.	(>16cccL	.
.	.	.	.	.	.	16bb	.
.	.	.	.	.	.	16aa	.
.	.	.	.	.	.	16bbJ)	.
=109	=109	=109	=109	=109	=109	=109	=109
4C'<	.	4c'>	.	4G'< 4e'<	.	16ccc'>L	.
.	.	.	.	.	.	16eee'>	.
.	.	.	.	.	.	16ddd'>	.
.	.	.	.	.	.	16ccc'>J	.
4C'<	.	4G'< 4e'<	.	4G'< 4e'< 4cc'<	.	16bb'>L	.
.	.	.	.	.	.	16aa'>	.
.	.	.	.	.	.	16gg'>	.
.	.	.	.	.	.	16ff'>J	.
4r	.	4r	.	4r	.	16ee'>L	.
.	.	.	.	.	.	16ccc'>	.
.	.	.	.	.	.	16bb'>	.
.	.	.	.	.	.	16aa'>J	.
=110	=110	=110	=110	=110	=110	=110	=110
2.r	.	2.r	.	2.r	.	16ggL	.
!	!	!	!	!	!	!LO:TX:iB:t=Cresc.	!
.	.	.	.	.	.	16ff	.
.	.	.	.	.	.	16ee	.
.	.	.	.	.	.	16ddJ	.
.	.	.	.	.	.	16ccL	.
.	.	.	.	.	.	16gg	.
.	.	.	.	.	.	16ff	.
.	.	.	.	.	.	16eeJ	.
.	.	.	.	.	.	16ddL	.
.	.	.	.	.	.	16cc	.
.	.	.	.	.	.	16bn	.
.	.	.	.	.	.	16aJ	.
=111	=111	=111	=111	=111	=111	=111	=111
4r	.	4r	.	4r	.	16gL	.
.	.	.	.	.	.	16ee	.
.	.	.	.	.	.	16dd	.
.	.	.	.	.	.	16ccJ	.
4r	.	4r	.	4r	.	16bnL	.
.	.	.	.	.	.	16a	.
.	.	.	.	.	.	16g	.
.	.	.	.	.	.	16fJ	.
!	!	!	!	!LO:TX:iB:t=Cresc.	!	!	!
16EL	.	16EL	.	16eL	.	16eL	.
!LO:TX:iB:t=Cresc.	!	!LO:TX:iB:t=Cresc.	!	!	!	!	!
16c	.	16c	.	16cc	.	16cc	.
16Bn	.	16Bn	.	16bn	.	16b	.
16AJ	.	16AJ	.	16aJ	.	16aJ	.
=112	=112	=112	=112	=112	=112	=112	=112
16GL	.	16GL	.	16gL	.	16gL	.
16F	.	16F	.	16f	.	16f	.
16E	.	16E	.	16e	.	16e	.
16DJ	.	16DJ	.	16dJ	.	16dJ	.
(<16CL	.	16CL	.	(<16cL	.	(<16cL	.
16BBn	.	(<16Bn	.	16Bn	.	16Bn	.
16C	.	16c	.	16c	.	16c	.
16BBJ	.	16B	.	16BJ	.	16BJ	.
16CL	.	16c	.	16cL	.	16cL	.
16BB	.	16B	.	16B	.	16B	.
16C	.	16c	.	16c	.	16c	.
16BBJ)	.	16BJ)	.	16BJ)	.	16BJ)	.
=113	=113	=113	=113	=113	=113	=113	=113
4C'<	f	4c'>	f	4c'<	f	4c'<	f
4CC'<	.	4E'<	.	4G'<	.	4c'<	.
4CC'<	.	4E'<	.	4G'<	.	4c'<	.
=114	=114	=114	=114	=114	=114	=114	=114
4CC'<	.	4E'<	.	4G'<	.	4c'<	.
4r	.	4r	.	4r	.	4r	.
4r	.	4r	.	4r	.	4r	.
=115:|!	=115:|!	=115:|!	=115:|!	=115:|!	=115:|!	=115:|!	=115:|!
4AA	f	4A	f	4A 4a	f	16aa'>L	f
.	.	.	.	.	.	16eee'>	.
.	.	.	.	.	.	16ddd'>	.
.	.	.	.	.	.	16ccc#'>J	.
4r	.	4r	.	4r	.	16bbn'>L	.
.	.	.	.	.	.	16aa'>	.
.	.	.	.	.	.	16gg#'>	.
.	.	.	.	.	.	16ff#'>J	.
4r	.	4r	.	4r	.	16ee'>L	.
.	.	.	.	.	.	16aa'>	.
.	.	.	.	.	.	16gg'>	.
.	.	.	.	.	.	16ff'>J	.
=116	=116	=116	=116	=116	=116	=116	=116
2.r	.	2.r	.	2.r	.	16eeL	.
.	.	.	.	.	.	16dd	.
.	.	.	.	.	.	16cc#	.
.	.	.	.	.	.	16bnJ	.
.	.	.	.	.	.	16aL	.
.	.	.	.	.	.	16ee	.
.	.	.	.	.	.	16dd	.
.	.	.	.	.	.	16ccJ	.
.	.	.	.	.	.	16bL	.
.	.	.	.	.	.	16a	.
.	.	.	.	.	.	16g#	.
.	.	.	.	.	.	16f#J	.
=117	=117	=117	=117	=117	=117	=117	=117
16EL	.	16r	.	16r	.	16eL	.
16A	.	16aL	.	16aL	.	16a	.
16G#	.	16g#	.	16g#	.	16g#	.
16F#J	.	16f#J	.	16f#J	.	16f#J	.
16EL	.	16eL	.	16eL	.	16eL	.
16D	.	16d	.	16d	.	16d	.
16C#	.	16c#	.	16c#	.	(<16c#	.
16BBnJ	.	16BnJ	.	16BnJ	.	16BnJ	.
(<16AAL	.	(<16AL	.	(<16AL	.	16AL	.
16GG#	.	16G#	.	16G#	.	16G#	.
16AA	.	16A	.	16A	.	16A	.
16GGJ)	.	16GJ)	.	16GJ)	.	16GJ)	.
=118	=118	=118	=118	=118	=118	=118	=118
4AA'<	.	4A'<	.	4A	.	4A'<	.
4AA'<	.	4A'<	.	4A'<	.	4A'<	.
4AA'<	.	4A'<	.	(<4A	.	(<4A	.
=119	=119	=119	=119	=119	=119	=119	=119
(<4.BB	fp	(<4.B	fp	2.B)	fp	2.B)	fp
16CL	.	16cL	.	.	.	.	.
16BBJ)	.	16BJ)	.	.	.	.	.
8AA'<L	.	8A'<L	.	.	.	.	.
8BB'<J	.	8B'<J	.	.	.	.	.
=120	=120	=120	=120	=120	=120	=120	=120
2.FF	.	2.F	.	4B	.	16B]]	.
.	.	.	.	.	.	16ddL	.
.	.	.	.	.	.	16ff	.
.	.	.	.	.	.	16bbJ	.
.	.	.	.	4B'<	.	16dddL	.
.	.	.	.	.	.	16bb	.
.	.	.	.	.	.	16ddd	.
.	.	.	.	.	.	16bbJ	.
.	.	.	.	4B'<	.	16dddL	.
.	.	.	.	.	.	16bb	.
.	.	.	.	.	.	16ddd	.
.	.	.	.	.	.	16bbJ	.
=121	=121	=121	=121	=121	=121	=121	=121
(<4.BB	.	(<4.B	fp	[2.B	fp	4eee-	f
.	.	.	.	.	.	4r	.
16CL	.	16cL	.	.	.	.	.
16BBJ)	.	16BJ)	.	.	.	.	.
8AA'<L	.	8A'<L	.	.	.	4r	.
8BB'<J	.	8B'<J	.	.	.	.	.
=122	=122	=122	=122	=122	=122	=122	=122
2.GG	.	2.G	.	4B]	.	16r	p
.	.	.	.	.	.	16ee-L	.
.	.	.	.	.	.	16gg	.
.	.	.	.	.	.	16bbJ	.
.	.	.	.	4B'<	.	16eee-L	.
.	.	.	.	.	.	16bb	.
.	.	.	.	.	.	16eee	.
.	.	.	.	.	.	16bbJ	.
.	.	.	.	4B'<	.	16eeeL	.
.	.	.	.	.	.	16bb	.
.	.	.	.	.	.	16eee	.
.	.	.	.	.	.	16bbJ	.
=123	=123	=123	=123	=123	=123	=123	=123
(>2.G	pp	[2.e-	pp	(>4.b	pp	4eee-	.
.	.	.	.	.	.	4r	.
.	.	.	.	16ccL)	.	.	.
.	.	.	.	16bJ	.	.	.
.	.	.	.	8a'<L	.	4r	.
.	.	.	.	8b'<J	.	.	.
=124	=124	=124	=124	=124	=124	=124	=124
2.A)	.	(>2e___	.	(>2cc	.	2.r	.
.	.	4c)	.	4e-)	.	.	.
=125	=125	=125	=125	=125	=125	=125	=125
2.r	.	2.r	.	2.r	.	(>2ccc	pp
.	.	.	.	.	.	4ee-)	.
=126	=126	=126	=126	=126	=126	=126	=126
(>2.B	.	[2.g	.	(>4.dd	.	2.r	.
.	.	.	.	16eeL	.	.	.
.	.	.	.	16ddJ)	.	.	.
.	.	.	.	8cc#'>L	.	.	.
.	.	.	.	8dd'>J	.	.	.
=127	=127	=127	=127	=127	=127	=127	=127
2.c#)	.	(>2g_	.	(>2ee	.	2.r	.
.	.	4e)	.	4g)	.	.	.
=128	=128	=128	=128	=128	=128	=128	=128
2.r	.	2.r	.	2.r	.	(>2eee	pp
.	.	.	.	.	.	4gg)	.
=129	=129	=129	=129	=129	=129	=129	=129
(>4.B	.	2.r	.	2.r	f	2.r	.
16cL	.	.	.	.	.	.	.
16BJ)	.	.	.	.	.	.	.
8A'>L	.	.	.	.	.	.	.
8B'>J	.	.	.	.	.	.	.
=130	=130	=130	=130	=130	=130	=130	=130
4C#'<	.	(>4.b	f	2.r	.	2.r	.
4D'>	.	.	.	.	.	.	.
.	.	16ccL	.	.	.	.	.
.	.	16bJ)	.	.	.	.	.
4D#'>	.	8a'>L	.	.	.	.	.
.	.	8b'>J	.	.	.	.	.
=131	=131	=131	=131	=131	=131	=131	=131
4E'>	f	4c#'>	.	4r	.	(>4.bb	f
4c#'>	.	4e'>	.	4.b	.	.	.
.	.	.	.	.	.	16cccL	.
.	.	.	.	.	.	16bbJ)	.
4d'>	.	4f'>	.	.	.	8aa'>L	.
.	.	.	.	16ccL	.	8bb'>J	.
.	.	.	.	16bJ	.	.	.
=132	=132	=132	=132	=132	=132	=132	=132
4e'>	.	4g'>	.	8a'<L	.	4cc#'>	.
.	.	.	.	8b'<J	.	.	.
4e'>	.	4g'>	.	4gg'>	.	4eee'>	.
4f'>	.	4a'>	.	4ff'>	.	4ddd'>	.
=133	=133	=133	=133	=133	=133	=133	=133
4g'>	sf	4b'>	sf	[(>4ee	sf	(>8ccc#L	sf
.	.	.	.	.	.	16eee	.
.	.	.	.	.	.	16dddJ)	.
(>4.g	.	(>4.b	.	8eeL]	.	(>4.ccc	.
.	.	.	.	16gg	.	.	.
.	.	.	.	16ffJ	.	.	.
.	.	.	.	(>8eeL)	.	.	.
8f)	.	8a)	.	8ddJ)	.	8ddd)	.
=134	=134	=134	=134	=134	=134	=134	=134
4g'>	sf	4b'>	sf	[(>4ee	sf	(>8ccc#L	sf
.	.	.	.	.	.	16eee	.
.	.	.	.	.	.	16dddJ)	.
(>4.g	.	(>4.b	.	8eeL]	.	(>4.ccc	.
.	.	.	.	16gg	.	.	.
.	.	.	.	(>16ffJ)	.	.	.
.	.	.	.	8eeL	.	.	.
8f)	.	8a)	.	8ddJ	.	8ddd)	.
=135	=135	=135	=135	=135	=135	=135	=135
2.r	f	2.r	.	[(>4ee-	.	2.r	.
.	.	.	.	8eeL]	.	.	.
.	.	.	.	16ff	.	.	.
.	.	.	.	16eeJ	.	.	.
.	.	.	.	8dd'>L))	.	.	.
.	.	.	.	8ee'>J	.	.	.
=136	=136	=136	=136	=136	=136	=136	=136
(>4.e-	.	2.r	.	4f#'<	f	2.r	.
.	.	.	.	4g'<	.	.	.
16fL	.	.	.	.	.	.	.
16eJ)	.	.	.	.	.	.	.
8d'>L	.	.	.	4g#'<	.	.	.
8e'>J	.	.	.	.	.	.	.
=137	=137	=137	=137	=137	=137	=137	=137
4F#'>	.	4r	f	4a'<	.	(>4.eee-	f
4G'>	.	(>4.e-	.	4b'>	.	.	.
.	.	.	.	.	.	16fffL	.
.	.	.	.	.	.	16eeeJ)	.
4G-'>	.	.	.	4bn'>	.	8ddd'>L	.
.	.	16fL	.	.	.	8eee'>J	.
.	.	16eJ)	.	.	.	.	.
=138	=138	=138	=138	=138	=138	=138	=138
4A'>	.	8d'>L	.	4cc'>	.	4ff#'>	.
.	.	8e-'>J	.	.	.	.	.
4A'>	.	4c'>	.	4aa'>	.	4ccc'>	.
4B'>	.	4d'>	.	4gg'>	.	4bb'>	.
=139	=139	=139	=139	=139	=139	=139	=139
[(>4c	sf	[4e-	sf	(>8ff#L	sf	(>8aaL	sf
.	.	.	.	16aa	.	16ccc	.
.	.	.	.	(>16ggJ)	.	16bbJ)	.
8cL]	.	(>8eL_	.	4.ff	.	(>4.aa	.
16A	.	16c	.	.	.	.	.
(>16BJ	.	16dJ)	.	.	.	.	.
8cL)	.	(>8eL	.	.	.	.	.
8BJ)	.	8dJ)	.	8gg)	.	8bb)	.
=140	=140	=140	=140	=140	=140	=140	=140
[(>4c	sf	[4e-	sf	(>8ff#L	sf	(>8aaL	sf
.	.	.	.	16aa	.	16ccc	.
.	.	.	.	16ggJ)	.	16bbJ)	.
(>8cL_	.	(>8eL_	.	(>4.ff	.	(>4.aa	.
16A	.	16c	.	.	.	.	.
16BJ)	.	16dJ)	.	.	.	.	.
8cL)	.	(>8eL	.	.	.	.	.
8BJ	.	8dJ)	.	8gg)	.	8bb)	.
=141	=141	=141	=141	=141	=141	=141	=141
2.r	.	(>4.a-	f	2.r	.	2.r	.
.	.	16bL	.	.	.	.	.
.	.	16aJ)	.	.	.	.	.
.	.	8g'>L	.	.	.	.	.
.	.	8a'>J	.	.	.	.	.
=142	=142	=142	=142	=142	=142	=142	=142
(>4.A-	.	4Bn'<	.	2.r	f	2.r	.
.	.	4c'>	.	.	.	.	.
16BL	.	.	.	.	.	.	.
16AJ	.	.	.	.	.	.	.
8G'>L)	.	4c#'>	.	.	.	.	.
8A'>J	.	.	.	.	.	.	.
=143	=143	=143	=143	=143	=143	=143	=143
4BBn'<	f	4d'>	.	4r	.	(>4.aa-	f
4C'<	.	4e-'>	.	(<4.a-	.	.	.
.	.	.	.	.	.	16bbL	.
.	.	.	.	.	.	16aaJ)	.
4C#'<	.	4en'>	.	.	.	8gg'>L	.
.	.	.	.	16bL	.	8aa'>J	.
.	.	.	.	16aJ)	.	.	.
=144	=144	=144	=144	=144	=144	=144	=144
4D	.	4f'>	.	8g'<L	.	4bn'>	.
.	.	.	.	8a-'<J	.	.	.
(>4f'>	.	4a-'>	.	(>4dd'>	.	4aa-'>	.
4e-'>)	.	4g'>	.	4cc'>)	.	4aa'>	.
=145	=145	=145	=145	=145	=145	=145	=145
8dL	sf	(>8fL	sf	(>8bnL	sf	[4aa-	sf
(>16f	.	16a-	.	16dd	.	.	.
16e-J	.	16gJ)	.	(>16ccJ)	.	.	.
(>4.d	.	(>4.f	.	4.b	.	(>8aaL	.
.	.	.	.	.	.	16ff	.
.	.	.	.	.	.	16ggJ)	.
.	.	.	.	.	.	(>8aa-L	.
8e))	.	8g)	.	8cc)	.	8ggJ)	.
=146	=146	=146	=146	=146	=146	=146	=146
(>8dL	sf	(>8fL	sf	(>8bnL	sf	[4aa-	sf
(>16f	.	16a-	.	16dd	.	.	.
16e-J	.	16gJ)	.	(>16ccJ)	.	.	.
4.d)	.	(>4.f	.	4.b	.	(>8aaL__	.
.	.	.	.	.	.	16ff	.
.	.	.	.	.	.	16ggJ)	.
.	.	.	.	.	.	(>8aaL	.
8e)	.	8g)	.	8cc	.	8ggJ)	.
=147	=147	=147	=147	=147	=147	=147	=147
2.r	sf	(>8bL	sf	(>8dd-L)	.	4r	sf
.	.	16g	.	16b	.	.	.
.	.	16a-J)	.	(>16ccJ))	.	.	.
.	.	(>4.b	.	4.dd	.	(>8eeeL	.
.	.	.	.	.	.	16ggg	.
.	.	.	.	.	.	16fffJ)	.
.	.	.	.	.	.	(>8eeeL	.
.	.	8a)	.	8cc	.	8fffJ)	.
=148	=148	=148	=148	=148	=148	=148	=148
2.r	sf	(>8bL	sf	(>8dd-L	.	4r	sf
.	.	16g	.	16b	.	.	.
.	.	16a-J)	.	16ccJ)	.	.	.
.	.	(>4.b	.	(>4.dd	.	(>8eeeL	.
.	.	.	.	.	.	16ggg	.
.	.	.	.	.	.	16fffJ)	.
.	.	.	.	.	.	(>8eeeL	.
.	.	8a)	.	8cc)	.	8fffJ)	.
=149	=149	=149	=149	=149	=149	=149	=149
8e-L	sf	(>8g-L	sf	(>8ccL	sf	[4aa	sf
16c	.	16e-	.	16ee-	.	.	.
16d-J	.	16fJ)	.	(>16dd-J)	.	.	.
(>4.e	.	(>4.g	.	4.cc	.	(>8aaL_	.
.	.	.	.	.	.	16ccc	.
.	.	.	.	.	.	16bbJ)	.
.	.	.	.	.	.	(>8aaL	.
8d)	.	8f)	.	8b)	.	8bbJ)	.
=150	=150	=150	=150	=150	=150	=150	=150
(>8e-L	sf	(>8g-L	sf	(>8ccL	sf	[4aa	sf
16c)	.	16e-	.	16ee-)	.	.	.
16d-J	.	16fJ)	.	16dd-J	.	.	.
(>4.e	.	(>4.g	.	(>4.cc	.	(>8aaL_	.
.	.	.	.	.	.	16ccc	.
.	.	.	.	.	.	16bbJ)	.
.	.	.	.	.	.	(>8aaL	.
8d)	.	8f)	.	8b)	.	8bbJ)	.
=151	=151	=151	=151	=151	=151	=151	=151
4BB	fp	8BL	fp	8d-L	fp	[4ddd-	fp
.	.	8B	.	8d	.	.	.
4r	.	8B	.	8d	.	(>8dddL_	.
.	.	8B	.	8d	.	16eee-	.
.	.	.	.	.	.	16dddJ)	.
4r	.	8B	.	8d	.	8ccc'>L	.
.	.	8BJ	.	8dJ	.	8ddd'>J	.
=152	=152	=152	=152	=152	=152	=152	=152
!!Error: measure 152, staff 2 is underfilled: adding token 4ryy at end of measure to complete its duration.
2.r	.	2.B	.	2d-	.	[4bb	.
.	.	.	.	.	.	(>8bbL_	.
.	.	.	.	.	.	16ccc	.
.	.	.	.	.	.	16bbJ)	.
.	.	.	.	4ryy	.	8aa'>L	.
.	.	.	.	.	.	8bb'>J	.
=153	=153	=153	=153	=153	=153	=153	=153
2.r	.	2.B	.	2.d-	.	[4ff	.
.	.	.	.	.	.	(>8ffL_	.
.	.	.	.	.	.	16gg-	.
.	.	.	.	.	.	16ffJ)	.
.	.	.	.	.	.	8ee'>L	.
.	.	.	.	.	.	8ff'>J	.
=154	=154	=154	=154	=154	=154	=154	=154
2.r	.	2.B	.	2.d-	.	[4dd-	.
.	.	.	.	.	.	(>8ddL_	.
.	.	.	.	.	.	16ee-	.
.	.	.	.	.	.	16ddJ)	.
.	.	.	.	.	.	8cc'>L	.
.	.	.	.	.	.	8dd'>J	.
=155	=155	=155	=155	=155	=155	=155	=155
2.G-	fp	2.B	fp	[4gg-	fp	8d-L	fp
.	.	.	.	.	.	8d	.
.	.	.	.	(>8ggL__	.	8d	.
.	.	.	.	16aa-	.	8d	.
.	.	.	.	16ggJ)	.	.	.
.	.	.	.	8ff'>L	.	8d	.
.	.	.	.	8gg'>J	.	8dJ	.
=156	=156	=156	=156	=156	=156	=156	=156
2.D-	.	2.B	.	[4dd-	.	8d-L	.
.	.	.	.	.	.	8d	.
.	.	.	.	(>8ddL_	.	8d	.
.	.	.	.	16ee-	.	8d	.
.	.	.	.	16ddJ)	.	.	.
.	.	.	.	8cc'>L	.	8d	.
.	.	.	.	8dd'>J	.	8dJ	.
=157	=157	=157	=157	=157	=157	=157	=157
2.BB	.	2.B	.	[4b	.	8d-L	.
.	.	.	.	.	.	8d	.
.	.	.	.	(>8bL_	.	8d	.
.	.	.	.	16cc-)	.	8d	.
.	.	.	.	16bJ	.	.	.
.	.	.	.	8a'<L	.	8d	.
.	.	.	.	8b'<J	.	8dJ	.
=158	=158	=158	=158	=158	=158	=158	=158
4GG-'<	.	2.B	.	(<4g-'<	.	8d-L	.
.	.	.	.	.	.	8d	.
4FF'<	.	.	.	4f'<	.	8d	.
.	.	.	.	.	.	8d	.
4EE'<	.	.	.	4e'<)	.	8c	.
.	.	.	.	.	.	8cJ	.
=159	=159	=159	=159	=159	=159	=159	=159
4FF	fp	2.A-	fp	8cL	fp	[4ff	fp
.	.	.	.	8c	.	.	.
4r	.	.	.	8c	.	(>8ffL_	.
.	.	.	.	8c	.	16gg	.
.	.	.	.	.	.	16ffJ)	.
4r	.	.	.	8c	.	8ee'>L	.
.	.	.	.	8cJ	.	8ff'>J	.
=160	=160	=160	=160	=160	=160	=160	=160
2.r	.	2.A-	.	2.c	.	[4cc	.
.	.	.	.	.	.	(>8ccL_	.
.	.	.	.	.	.	16dd-	.
.	.	.	.	.	.	16ccJ)	.
.	.	.	.	.	.	8bn'>L	.
.	.	.	.	.	.	8cc'>J	.
=161	=161	=161	=161	=161	=161	=161	=161
2.r	.	2.A-	.	2.c	.	[4a-	.
.	.	.	.	.	.	(<8aL_	.
.	.	.	.	.	.	16b	.
.	.	.	.	.	.	16aJ)	.
.	.	.	.	.	.	8g'<L	.
.	.	.	.	.	.	8a'<J	.
=162	=162	=162	=162	=162	=162	=162	=162
2.r	.	2.A-	.	2.c	.	[4f	.
.	.	.	.	.	.	(<8fL_	.
.	.	.	.	.	.	16g	.
.	.	.	.	.	.	16fJ)	.
.	.	.	.	.	.	8e'<L	.
.	.	.	.	.	.	8f'<J	.
=163	=163	=163	=163	=163	=163	=163	=163
2.D-	fp	2.A-	fp	[4dd-	fp	8fL	fp
.	.	.	.	.	.	8f	.
.	.	.	.	(>8ddL_	.	8f	.
.	.	.	.	16ee-)	.	8f	.
.	.	.	.	16ddJ	.	.	.
.	.	.	.	8cc'>L	.	8f	.
.	.	.	.	8dd'>J	.	8fJ	.
=164	=164	=164	=164	=164	=164	=164	=164
!!Error: measure 164, staff 3 is underfilled: adding token 4ryy at end of measure to complete its duration.
2.AA-	.	2A-	.	[4a-	.	8fL	.
.	.	.	.	.	.	8f	.
.	.	.	.	(<8aL_	.	8f	.
.	.	.	.	16b	.	8f	.
.	.	.	.	16aJ)	.	.	.
.	.	4ryy	.	8g'<L	.	8f	.
.	.	.	.	8a'<J	.	8fJ	.
=165	=165	=165	=165	=165	=165	=165	=165
2FF	.	2.A-	.	[4f	.	8fL	.
.	.	.	.	.	.	8f	.
.	.	.	.	(<8fL_	.	8f	.
.	.	.	.	16g-	.	8f	.
.	.	.	.	16fJ)	.	.	.
4DD-'<	.	.	.	8e-'<L	.	8f	.
.	.	.	.	8f'<J	.	8fJ	.
=166	=166	=166	=166	=166	=166	=166	=166
4D-'>	.	2.A-	.	(<4d-'<	.	8fL	.
.	.	.	.	.	.	8f	.
4C'<	.	.	.	4c'<	.	8f	.
.	.	.	.	.	.	8f	.
4BBn'<	.	.	.	4Bn'<	.	8f	.
.	.	.	.	.	.	8fJ	.
=167	=167	=167	=167	=167	=167	=167	=167
4CC 4C	sf	4G	sf	4c'<)	sf	16e'<	sf
.	.	.	.	.	.	16ccc'>L	.
.	.	.	.	.	.	16bbn'>	.
.	.	.	.	.	.	16aa'>J	.
8r	.	[2c	.	[2G [2e	.	16gg'>L	.
.	.	.	.	.	.	16ff'>	.
8C'<L	.	.	.	.	.	16ee'>	.
.	.	.	.	.	.	16dd'>J	.
8C'<	.	.	.	.	.	[4cc	.
8C'<J	.	.	.	.	.	.	.
=168	=168	=168	=168	=168	=168	=168	=168
4EE	.	4c]	sf	4G] 4e]	sf	16ccL]	sf
.	.	.	.	.	.	16ccc'>	.
.	.	.	.	.	.	16bbn'>	.
.	.	.	.	.	.	16aa'>J	.
8r	.	[2c	.	[2G [2e	.	16gg'>L	.
.	.	.	.	.	.	16ff'>	.
8E'>L	.	.	.	.	.	16ee'>	.
.	.	.	.	.	.	16dd'>J	.
8E'>	.	.	.	.	.	[4cc	.
8E'>J	.	.	.	.	.	.	.
=169	=169	=169	=169	=169	=169	=169	=169
4GG	.	4c]	sf	4G] 4e]	sf	16ccL]	.
.	.	.	.	.	.	16ccc'>	.
.	.	.	.	.	.	16bbn'>	.
.	.	.	.	.	.	16aa'>J	.
8r	.	[2c	.	[2G [2e	.	16gg'>L	.
.	.	.	.	.	.	16ff'>	.
8G'>L	.	.	.	.	.	16ee'>	.
.	.	.	.	.	.	16dd'>J	.
8G'>	.	.	.	.	.	16cc'>L	.
.	.	.	.	.	.	16ccc'>	.
8G'>J	.	.	.	.	.	16bb'>	.
.	.	.	.	.	.	16aa'>J	.
=170	=170	=170	=170	=170	=170	=170	=170
4C	.	4c]	.	4G] 4e]	sf	16ggL	.
.	.	.	.	.	.	16ff	.
.	.	.	.	.	.	16ee	.
.	.	.	.	.	.	16ddJ	.
8r	.	4c	.	4G 4e	.	16ccL	.
.	.	.	.	.	.	16bn	.
8c'>L	.	.	.	.	.	16dd	.
.	.	.	.	.	.	16ccJ	.
8c'>	.	4c	.	4G 4e	.	16bL	.
.	.	.	.	.	.	16cc	.
8c'>J	.	.	.	.	.	16dd	.
.	.	.	.	.	.	16ccJ	.
=171	=171	=171	=171	=171	=171	=171	=171
16CC'<L	.	4c	sf	4G 4e	sf	4b	sf
16C'<	.	.	.	.	.	.	.
16BBn	.	.	.	.	.	.	.
16AA'<J	.	.	.	.	.	.	.
16GG'<L	.	[2C [2c	.	4r	.	[2ee	.
16FF'<	.	.	.	.	.	.	.
16EE'<	.	.	.	.	.	.	.
16DD'<J	.	.	.	.	.	.	.
[4CC	.	.	.	16r	.	.	.
.	.	.	.	16c'<L	.	.	.
.	.	.	.	16d'<	.	.	.
.	.	.	.	16e'<J	.	.	.
=172	=172	=172	=172	=172	=172	=172	=172
16CCL]	sf	4C] 4c]	sf	16f'<L	sf	4ee]	sf
16C'<	.	.	.	16g'<	.	.	.
16BBn	.	.	.	16a'<	.	.	.
16AA'<J	.	.	.	16bn'<J	.	.	.
16GG'<L	.	[2c [2e	.	[4cc	.	[2gg	.
16FF'<	.	.	.	.	.	.	.
16EE'<	.	.	.	.	.	.	.
16DD'<J	.	.	.	.	.	.	.
[4CC	.	.	.	16ccL]	.	.	.
.	.	.	.	16c'<	.	.	.
.	.	.	.	16d'<	.	.	.
.	.	.	.	16e'<J	.	.	.
=173	=173	=173	=173	=173	=173	=173	=173
16CCL]	sf	4c] 4e]	sf	16f'<L	.	4gg]	sf
16C'<	.	.	.	16g'<	.	.	.
16BBn	.	.	.	16a'<	.	.	.
16AA'<J	.	.	.	16bn'<J	.	.	.
16GG'<L	.	[2c [2g	.	[4cc	.	[2bb	.
16FF'<	.	.	.	.	.	.	.
16EE'<	.	.	.	.	.	.	.
16DD'<J	.	.	.	.	.	.	.
16CC'<L	.	.	.	16ccL]	.	.	.
16C'<	.	.	.	16c'<	.	.	.
16BB'<	.	.	.	16d'<	.	.	.
16AA'<J	.	.	.	16e'<J	.	.	.
=174	=174	=174	=174	=174	=174	=174	=174
16GG'<L	.	(>4c_ 4g]	.	16f'<L	.	4bb]	.
16FF'<	.	.	.	16g'<	.	.	.
16EE'<	.	.	.	16a'<	.	.	.
16DD'<J	.	.	.	16bn'<J	.	.	.
16CC'<L	.	4c'> 4g'>	.	16cc'<L	.	4eee'>	.
16C'<	.	.	.	16c'<	.	.	.
16BBn'<	.	.	.	16d'<	.	.	.
16AA'<J	.	.	.	16e'<J	.	.	.
16GG'<L	.	4c'>) 4g'>	.	16f'<L	.	4ggg'>	.
16FF'<	.	.	.	16g'<	.	.	.
16EE'<	.	.	.	16a'<	.	.	.
16DD'<J	.	.	.	16b'<J	.	.	.
=175	=175	=175	=175	=175	=175	=175	=175
8CC'<L	sf	2.c 2.g	sf	[2cc	sf	2.bbb	sf
16DD'<	.	.	.	.	.	.	.
16EE'<J	.	.	.	.	.	.	.
16FF'<L	.	.	.	.	.	.	.
16GG'<	.	.	.	.	.	.	.
16AA'<	.	.	.	.	.	.	.
16BBn'<J	.	.	.	.	.	.	.
[4C	.	.	.	8ccL]	.	.	.
.	.	.	.	16bn'>	.	.	.
.	.	.	.	16a'>J	.	.	.
=176	=176	=176	=176	=176	=176	=176	=176
8CL]	sf	2.C 2.c	sf	16g'<L	sf	2.ee	sf
.	.	.	.	16f'<	.	.	.
16C'<	.	.	.	16e'<	.	.	.
(>16D'<J	.	.	.	16d'<J	.	.	.
16EL	.	.	.	[4c	.	.	.
16F	.	.	.	.	.	.	.
16G	.	.	.	.	.	.	.
16AJ)	.	.	.	.	.	.	.
[4B	.	.	.	8cL]	.	.	.
.	.	.	.	16c'<	.	.	.
.	.	.	.	16d'<J	.	.	.
=177	=177	=177	=177	=177	=177	=177	=177
8B'>L]	.	8CL 8c	.	(<16eL	.	2.gg	sf
.	.	.	.	16f	.	.	.
8A'>	.	8C 8c	.	16g	.	.	.
.	.	.	.	16aJ)	.	.	.
8G'>	.	8C 8c	.	8b'<L	.	.	.
8F'>	.	8C 8c	.	8a'<	.	.	.
8E'>	.	8C 8c	.	8g'<	.	.	.
8D'>J	.	8CJ 8c	.	8f'<J	.	.	.
=178	=178	=178	=178	=178	=178	=178	=178
!LO:TX:iB:t=Cresc.	!	!	!	!LO:TX:iB:t=Cresc.	!	!LO:TX:iB:t=Cresc.	!
8C'<L	.	8CL 8c	.	8e'<L	.	(<16cL	.
.	.	.	.	.	.	16Bn	.
!	!	!LO:TX:iB:t=Cresc.	!	!	!	!	!
8D'<	.	8C 8c	.	8f'<	.	16c	.
.	.	.	.	.	.	16dJ	.
8C'<	.	8C 8c	.	8e'<	.	16eL	.
.	.	.	.	.	.	16f	.
8BB'<	.	8C 8c	.	8d'<	.	16g	.
.	.	.	.	.	.	16aJ	.
8AA'<	.	8C 8c	.	8c'<	.	16bL	.
.	.	.	.	.	.	16cc	.
8GG'<J	.	8CJ 8c	.	8B'<J	.	16dd	.
.	.	.	.	.	.	16eeJ)	.
=179	=179	=179	=179	=179	=179	=179	=179
(<4.FF	ff	(<4.F	ff	(<4.A 4.f	ff	(>4.ff	ff
16GGL	.	16GL	.	16gL	.	16ggL	.
16FFJ)	.	16FJ)	.	16fJ)	.	16ffJ)	.
8EE'<L	.	8E'<L	.	8e'<L	.	8ee'>L	.
8FF'<J	.	8F'<J	.	8f'<J	.	8ff'>J	.
=180	=180	=180	=180	=180	=180	=180	=180
4CC	.	4C	.	4c	.	4cc	.
4r	.	4r	.	4r	.	4r	.
4r	.	4r	.	4r	.	4r	.
=181	=181	=181	=181	=181	=181	=181	=181
(<4.FF	.	(<4.F	.	(<4.f	.	(>4.ff	.
16GGL	.	16GL	.	16gL	.	16ggL	.
16FFJ)	.	16FJ)	.	16fJ	.	16ffJ)	.
8EE'<L	.	8E'<L	.	8e'<L)	.	8ee'>L	.
8FF'<J	.	8F'<J	.	8f'<J	.	8ff'>J	.
=182	=182	=182	=182	=182	=182	=182	=182
4DD	.	4D	.	4d	.	4dd	.
4r	.	4r	.	4r	.	4r	.
4r	.	4r	.	4r	.	4r	.
=183	=183	=183	=183	=183	=183	=183	=183
2.D	p	(>2.d	p	[2.b	p	[(>4ff	p
.	<	.	<	.	<	8ffL]	<
.	.	.	.	.	.	16gg	.
.	.	.	.	.	.	16ffJ)	.
.	.	.	.	.	.	8ee'>L	.
.	[	.	[	.	[	8ff'>J	[
=184	=184	=184	=184	=184	=184	=184	=184
2.E	.	2.c)	>	(>2b_	.	(>2gg	>
.	]	.	]	4g)	]	4b)	]
=185	=185	=185	=185	=185	=185	=185	=185
(>4F	.	(>4c_	.	(<2f	.	(>2a	.
4D	.	4d	.	.	.	.	.
4BB)	.	4G)	.	8.bL	.	8.ddL	.
.	.	.	.	16gJ	.	16bJ)	.
=186	=186	=186	=186	=186	=186	=186	=186
2.C	.	(<8cL	.	(<2f)	.	(>2a	.
.	.	8Bn	.	.	.	.	.
.	.	8c	.	.	.	.	.
.	.	8BJ	.	.	.	.	.
.	.	4c)	.	4e)	.	4g)	.
=187	=187	=187	=187	=187	=187	=187	=187
2.r	p	2.r	.	[(>4b	.	2.r	.
.	.	.	.	8bL]	.	.	.
.	.	.	.	16cc	.	.	.
.	.	.	.	16bJ	.	.	.
.	.	.	.	(>8a'<L)	.	.	.
.	.	.	.	8b'<J	.	.	.
=188	=188	=188	=188	=188	=188	=188	=188
2.r	.	(>4.a	p	4.cc	.	[2.ff	p
.	.	16bL	.	16dd-L	.	.	.
.	.	16aJ)	.	16ccJ	.	.	.
.	.	8g'>L	.	8b'>L)	.	.	.
.	.	8a'>J	.	8cc'>J	.	.	.
=189	=189	=189	=189	=189	=189	=189	=189
2.r	.	(>4b	.	(>2dd-	.	(>4ff_	.
.	.	4g-	.	.	.	4bb)	.
.	.	4e-)	.	8.gg-L	.	(>8.bbL_	.
.	.	.	.	16ee-J)	.	16gg-J)	.
=190	=190	=190	=190	=190	=190	=190	=190
2.r	.	4a-'>	.	(>2dd-	.	(>2ff	.
.	.	4A-'<	.	.	.	.	.
.	.	4r	.	4cc)	.	4ee-)	.
=191	=191	=191	=191	=191	=191	=191	=191
(<4D-	.	(>2d-	.	(<2f	p	2.r	.
4BB	.	.	.	.	.	.	.
4GG-)	.	8.g-L	.	(<8.bL	.	.	.
.	.	16e-J)	.	16g-J))	.	.	.
=192	=192	=192	=192	=192	=192	=192	=192
4AA-'<	.	(>2d-	.	2f	.	2.r	.
4A-'>	.	.	.	.	.	.	.
4r	.	4c)	.	4e-	.	.	.
=193	=193	=193	=193	=193	=193	=193	=193
2.r	.	(>4b	.	(>2b~>	.	(>2dd-	.
.	.	4g-	.	.	.	.	.
.	.	4e-)	.	4b'>)	.	8.gg-L	.
.	.	.	.	.	.	16ee-J)	.
=194	=194	=194	=194	=194	=194	=194	=194
2.r	.	4f'>	.	(>2b	.	(>2dd-	.
.	.	4F'<	.	.	.	.	.
.	.	4r	.	4a)	.	4cc)	.
=195	=195	=195	=195	=195	=195	=195	=195
(>4B	.	[2B~<	.	(<2d-	.	2.r	.
4G-	.	.	.	.	.	.	.
4E-)	.	4B'<]	.	8.g-L	.	.	.
.	.	.	.	16e-J)	.	.	.
=196	=196	=196	=196	=196	=196	=196	=196
(>2.F	.	(<2.A-	.	(<2.d-	.	4r	.
!	!	!	!	!	!	!LO:TX:iB:t=Cresc.	!
.	.	.	.	.	.	4dd-	.
.	.	.	.	.	.	4dd	.
=197	=197	=197	=197	=197	=197	=197	=197
4D-)	.	2.F)	.	2.a-)	.	(>8dd-L	.
.	.	.	.	.	.	8cc-	.
4DD-	.	.	.	.	.	8b	.
.	.	.	.	.	.	8cc	.
4DD	.	.	.	.	.	8dd	.
.	.	.	.	.	.	8ccJ)	.
=198	=198	=198	=198	=198	=198	=198	=198
[2.GG-	p	(<4.D-	p	4g-	p	4b	p
.	.	.	.	4r	.	4r	.
.	.	16E-L	.	.	.	.	.
.	.	16DJ)	.	.	.	.	.
.	.	8C'<L	.	4r	.	4r	.
.	.	8D'<J	.	.	.	.	.
=199	=199	=199	=199	=199	=199	=199	=199
2.GG]	.	[2.D-	.	4r	.	4r	.
.	.	.	.	4B	.	8r	.
.	.	.	.	.	.	8b	.
.	.	.	.	4B	.	4bT	.
.	.	.	.	.	.	(<16qa-L	.
.	.	.	.	.	.	16qbJ)	.
=200	=200	=200	=200	=200	=200	=200	=200
[2.AA-	.	(<4.D_	.	[2.c-	.	(>4.dd-	.
.	.	16E-L	.	.	.	8cc-L)	.
.	.	16D-'<J)	.	.	.	.	.
.	.	8CL	.	.	.	8a-'<	.
.	.	8D'<J	.	.	.	8g-'<J	.
=201	=201	=201	=201	=201	=201	=201	=201
2.AA]]	.	[2.D-	.	4c]	.	4f	.
.	.	.	.	4c-	.	8r	.
.	.	.	.	.	.	8cc-	.
.	.	.	.	4c	.	4ccT	.
.	.	.	.	.	.	(<16qbL	.
.	.	.	.	.	.	16qccJ)	.
=202	=202	=202	=202	=202	=202	=202	=202
[2.BB	.	(<4.D_	.	[2.d-	.	(>4.ee-	.
.	.	16E-L	.	.	.	8dd-	.
.	.	16D-J)	.	.	.	.	.
.	.	8C'<L	.	.	.	8b'<L)	.
.	.	8DJ	.	.	.	8a-'<J	.
=203	=203	=203	=203	=203	=203	=203	=203
2.BB]	.	2.D-	.	4d]	.	4g-	.
.	.	.	.	4d-	.	8r	.
.	.	.	.	.	.	8gg-	.
.	.	.	.	4d	.	4ggT	.
.	.	.	.	.	.	16qffL	.
.	.	.	.	.	.	16qggnJ	.
=204	=204	=204	=204	=204	=204	=204	=204
[2.FF	.	(<4.D-	.	2a-	.	(>4.bb	.
.	.	16E-L	.	.	.	8aa-L)	.
.	.	16DJ)	.	.	.	.	.
.	.	8C'<L	.	(<8a'<L	.	8aa'>	.
.	.	8D'<J	.	8g-'<J)	.	8gg-'>J	.
=205	=205	=205	=205	=205	=205	=205	=205
4FF]	.	2.D-	.	(<8g-L	.	(>8gg-L	.
.	.	.	.	8f)	.	8ffJ)	.
4AA-	.	.	.	8f'<	.	8ff'>L	.
.	.	.	.	8e-'<	.	8ee-'>	.
4DD-	.	.	.	8d-'<	.	8dd-'>	.
.	.	.	.	8c-'<J	.	8cc-'>J	.
=206	=206	=206	=206	=206	=206	=206	=206
!LO:TX:iB:t=Cresc.	!	!LO:TX:iB:t=Cresc.	!	!LO:TX:iB:t=Cresc.	!	!LO:TX:iB:t=Cresc.	!
(<2.GG-	.	(<4.D-	.	(<4A	.	(<4a	.
.	.	.	.	4B)	.	4b)	.
.	.	16E-L	.	.	.	.	.
.	.	16DJ)	.	.	.	.	.
.	.	8C'<L	.	4B'<	.	4b'>	.
.	.	8D'<J	.	.	.	.	.
=207	=207	=207	=207	=207	=207	=207	=207
2.FF)	.	2.D-	.	[4.B	.	(>4.b	.
.	.	.	.	16cL	.	16ccL	.
.	.	.	.	16BJ]	.	16bJ)	.
.	.	.	.	8A'<L	.	8a'<L	.
.	.	.	.	8B'<J	.	8b'<J	.
=208	=208	=208	=208	=208	=208	=208	=208
2EE	f	(<4.C	f	2g	f	2gg	f
.	.	16d-L	.	.	.	.	.
.	.	16cJ)	.	.	.	.	.
4E'>	.	8Bn'<L	.	4g	.	4b'>	.
.	.	8c'<J	.	.	.	.	.
=209	=209	=209	=209	=209	=209	=209	=209
4F'>	.	4c'>	.	4c'<	.	4a-'<	.
4E-'>	.	4G'<	.	4c'<	.	4g'<	.
4D-'>	.	8A-'<L	.	4Bn'<	.	4f'<	.
.	.	8F'<J	.	.	.	.	.
=210	=210	=210	=210	=210	=210	=210	=210
4C	p	4E	p	4G	.	16cc'<L	p
.	.	.	.	.	.	16c'<	.
.	.	.	.	.	.	16d'<	.
.	.	.	.	.	.	16e'<J	.
4r	.	8r	.	8r	.	16f'<L	.
.	.	.	.	.	.	16g'<	.
.	.	8e'>L	.	8g'<	.	16a'<	.
.	.	.	.	.	.	16bn'<J	.
4r	.	8e'>	.	8g'<L	.	16ccL	.
.	.	.	.	.	.	16b'>	.
.	.	8f'>J	.	8a-'<J	.	16cc'>	.
.	.	.	.	.	.	16b'>J	.
=211	=211	=211	=211	=211	=211	=211	=211
16r	.	4e	.	4g	p	4cc	.
16C'>L	.	.	.	.	.	.	.
16D'>	.	.	.	.	.	.	.
16E'>J	.	.	.	.	.	.	.
16F'>L	.	8r	.	8r	.	8r	.
16G'>	.	.	.	.	.	.	.
16A'>	.	8c'>	.	8g'<L	.	8ee'>L	.
16Bn'>J	.	.	.	.	.	.	.
16c'>L	.	8c'>L	.	8g'<	.	8ee'>	.
16B'>	.	.	.	.	.	.	.
16c'>	.	8c'>J	.	8a-'<J	.	8ff'>J	.
16B'>J	.	.	.	.	.	.	.
=212	=212	=212	=212	=212	=212	=212	=212
4c	.	4c	.	4g	.	16ee'<L	.
.	.	.	.	.	.	16c'<	.
.	.	.	.	.	.	16d'<	.
.	.	.	.	.	.	16e'<J	.
4r	.	8r	.	8r	.	16f'<L	.
.	.	.	.	.	.	16g'<	.
.	.	8E'<L	.	8G'<L	.	16a'<	.
.	.	.	.	.	.	16bn'<J	.
4r	.	8E'<	.	8G'<	.	16cc'>L	.
.	.	.	.	.	.	16b'>	.
.	.	8F'<J	.	8A-'<J	.	16cc'>	.
.	.	.	.	.	.	16b'>J	.
=213	=213	=213	=213	=213	=213	=213	=213
16r	.	4E	.	4G	.	4cc	.
16C'>L	.	.	.	.	.	.	.
16D'>	.	.	.	.	.	.	.
16E'>J	.	.	.	.	.	.	.
16F'>L	.	8r	.	8r	.	8r	.
16G'>	.	.	.	.	.	.	.
16A'>	.	8c'>L	.	8g'<L	.	8ee'>L	.
16Bn'>J	.	.	.	.	.	.	.
16c'>L	.	8c'>	.	8g'<	.	8ee'>	.
16B'>	.	.	.	.	.	.	.
16c'>	.	8c'>J	.	8a-'<J	.	8ff'>J	.
16B'>J	.	.	.	.	.	.	.
=214	=214	=214	=214	=214	=214	=214	=214
!LO:TX:iB:t=Cresc.	!	!LO:TX:iB:t=Cresc.	!	!LO:TX:iB:t=Cresc.	!	!LO:TX:iB:t=Cresc.	!
4c	.	4c	.	4g	.	16eeL	.
.	.	.	.	.	.	16c	.
.	.	.	.	.	.	16d	.
.	.	.	.	.	.	16eJ	.
8r	.	8r	.	8r	.	16fL	.
.	.	.	.	.	.	16g	.
8c'>L	.	8g'>L	.	8ee'>	.	16a	.
.	.	.	.	.	.	16bnJ	.
8c'>	.	8g'>	.	8ee'>L	.	16ccL	.
.	.	.	.	.	.	16b	.
8F'>J	.	8a-'>J	.	8ff'>J	.	16cc	.
.	.	.	.	.	.	16bJ	.
=215	=215	=215	=215	=215	=215	=215	=215
16c'<L	ff	16g	ff	16ee'>L	ff	16ccL	ff
16CC'<	.	16CL	.	16c	.	16cc	.
16DD	.	16D	.	16d	.	16dd	.
16EE'<J	.	16EJ	.	16eJ	.	16eeJ	.
16FF'<L	.	16FL	.	16fL	.	16ffL	.
16GG'<	.	16G	.	16g	.	16gg	.
16AA'<	.	16A	.	16a	.	16aa	.
16BBn'<J	.	16BnJ	.	16bnJ	.	16bbnJ	.
16C'<L	.	16cL	.	16ccL	.	16cccL	.
16BB	.	16B	.	16b	.	16bb	.
16C	.	16c	.	16cc	.	16ccc	.
16BBJ	.	16BJ	.	16bJ	.	16bbJ	.
=216	=216	=216	=216	=216	=216	=216	=216
4C'<	.	4c	.	4cc	.	8ccc	.
.	.	.	.	.	.	4ccc	.
4r	.	4r	.	4r	.	.	.
.	.	.	.	.	.	4ccc	.
4r	.	4r	.	4r	.	.	.
.	.	.	.	.	.	[8ccc	.
=217	=217	=217	=217	=217	=217	=217	=217
!	!	!	!	!	!	!LO:TX:iB:t=Decresc.	!
2.r	.	2.r	.	2.r	.	8ccc#	.
.	.	.	.	.	.	4ccc	.
.	.	.	.	.	.	4ccc	.
.	.	.	.	.	.	(>8ccc	.
=218	=218	=218	=218	=218	=218	=218	=218
2.r	.	2.r	.	2.r	.	8ddd)	p
.	.	.	.	.	.	(>8dddL	.
.	.	.	.	.	.	8bbJ)	.
.	.	.	.	.	.	(>8bbL	.
.	.	.	.	.	.	8ggJ)	.
.	.	.	.	.	.	(>8gg	.
=219	=219	=219	=219	=219	=219	=219	=219
2.r	p	4r	p	4r	.	8ee)	.
.	.	.	.	.	.	(>8eeL	.
.	.	4r	.	4r	.	8ccJ)	.
.	.	.	.	.	.	(>8ccL	.
.	.	8bL	.	8cc'>L	.	8eeJ)	.
.	.	(>8bJ	.	[8ccJ	.	(>8ee	.
=220	=220	=220	=220	=220	=220	=220	=220
2.r	.	8aL)	.	8cc]	.	8ff)	.
.	.	(>8aJ	.	(>8ccL	.	(>8ffL	.
.	.	8gL)	.	8eeJ)	.	8ggJ)	.
.	.	(>8gJ	.	(>(>8eeL	.	(>8ggL	.
.	.	8fL)	.	8ffJ))	.	8aaJ)	.
.	.	(>8fJ	.	8ff	.	(>8aa	.
=221	=221	=221	=221	=221	=221	=221	=221
2.r	.	4.e)	.	4aa	.	4ccc	.
.	.	.	.	8gg	.	8bb)	.
.	.	8r	.	8r	.	8r	.
.	.	8a'>L	.	4r	.	4r	.
.	.	8aJ	.	.	.	.	.
=222	=222	=222	=222	=222	=222	=222	=222
2.r	.	8b	.	2.r	.	2.r	.
.	.	(>8bL	.	.	.	.	.
.	.	8gJ)	.	.	.	.	.
.	.	(>8gL	.	.	.	.	.
.	.	8eJ)	.	.	.	.	.
.	.	(>8e	.	.	.	.	.
=223	=223	=223	=223	=223	=223	=223	=223
2.r	.	8c#L)	.	4r	.	4r	p
.	.	(>8cJ	.	.	.	.	.
.	.	8aL)	.	4r	.	4r	.
.	.	(>8aJ	.	.	.	.	.
.	.	8gL)	.	4ee	.	(>4ccc#	.
.	.	(>8gJ	.	.	.	.	.
=224	=224	=224	=224	=224	=224	=224	=224
2.r	.	8f)	.	4ff	.	4ddd	.
.	.	(>8fL	.	.	.	.	.
.	.	8dJ)	.	4aa	.	4fff	.
.	.	(>8dL	.	.	.	.	.
.	.	8gJ)	.	4dd	.	4bbn)	.
.	.	(>8g	.	.	.	.	.
=225	=225	=225	=225	=225	=225	=225	=225
4r	.	4.c)	.	(>4ff	.	(>4ddd	.
8r	.	.	.	8ee)	.	8ccc)	.
(>8BnL	.	8r	.	8r	.	8r	.
8c	.	4r	.	4r	.	4r	.
8c#J	.	.	.	.	.	.	.
=226	=226	=226	=226	=226	=226	=226	=226
8d)	.	2.r	.	2.r	.	2.r	.
(>8dL	.	.	.	.	.	.	.
8BJ)	.	.	.	.	.	.	.
(>8BL	.	.	.	.	.	.	.
8GJ)	.	.	.	.	.	.	.
(>8G	.	.	.	.	.	.	.
=227	=227	=227	=227	=227	=227	=227	=227
8E)	.	4r	.	4r	.	4r	.
(>8EL	.	.	.	.	.	.	.
8CJ)	.	4r	.	4r	.	4r	.
(>8CL	.	.	.	.	.	.	.
8EJ)	.	8g'>L	.	8cc'>L	.	8bb'>L	.
(>8E	.	(>8gJ	.	[8ccJ	.	8bbJ	.
=228	=228	=228	=228	=228	=228	=228	=228
8F)	.	8f)	.	(>8cc_	.	8aa	.
(>8FL	.	(>8fL	.	8ccL	.	(>8aaL	.
8GJ)	.	8eJ)	.	8bJ)	.	8ggJ)	.
(>8GL	.	(>8eL	.	(<8bL	.	(>8ggL	.
8AJ)	.	8cJ)	.	8aJ)	.	8ffJ)	.
8A	.	8c	.	(<8a	.	8ff	.
=229	=229	=229	=229	=229	=229	=229	=229
4.B	.	4.d-	.	4.g)	.	(>4ff	.
.	.	.	.	.	.	4ee)	.
8r	.	8r	.	8r	.	.	.
4r	.	4r	.	8cc'>L	.	4r	.
.	.	.	.	8ccJ	.	.	.
=230	=230	=230	=230	=230	=230	=230	=230
2.r	.	4r	.	8dd-	.	4r	.
.	.	.	.	(>8ddL	.	.	.
.	.	8dd-'>	.	8bJ)	.	4r	.
.	.	(>8ddL	.	(<8bL	.	.	.
.	.	8bJ)	.	8gJ)	.	[4ddd-	.
.	.	(>8b	.	(<8g	.	.	.
=231	=231	=231	=231	=231	=231	=231	=231
2.r	.	8g)	.	8e)	.	(>4ddd_	.
!LO:TX:iB:t=Cresc.	!	!	!	!	!	!	!
.	.	(>8gL	.	(<8eL	.	.	.
!	!	!LO:TX:iB:t=Cresc.	!	!	!	!LO:TX:iB:t=Cresc.	!
.	.	8a-J)	.	8fJ)	.	4ccc	.
.	.	(>8fL	.	4aa-	.	.	.
.	.	8BJ)	.	.	.	4fff)	.
.	.	(<8B	.	8aa	.	.	.
=232	=232	=232	=232	=232	=232	=232	=232
2.r	sf	8c)	sf	(>2aa-	.	(>2fff	sf
.	.	(>8cL	.	.	.	.	.
.	.	8ccJ)	.	.	.	.	.
.	.	(>8ccL	.	.	.	.	.
.	.	8cJ)	.	8.bbL	.	8.gggL	.
.	.	8c	.	.	.	.	.
.	.	.	.	16ggJ)	.	16eeeJ)	.
=233	=233	=233	=233	=233	=233	=233	=233
(>4.cc	p	8fL	p	8ffL	p	4fff	.
.	.	8F'<	.	8A'<J	.	.	.
.	.	8F'<	.	8A'<L	.	4r	.
16ddL	.	8F'<	.	8A'<J	.	.	.
16ccJ)	.	.	.	.	.	.	.
8bn'>L	.	8F'<	.	8A'<L	.	4r	.
8cc'>J	.	8F'<J	.	8A'<J	.	.	.
=234	=234	=234	=234	=234	=234	=234	=234
!!Error: measure 234, staff 3 is underfilled: adding token 4ryy at end of measure to complete its duration.
2.cc	.	2F	.	2.A	.	(>4.aa	p
.	.	.	.	.	.	16bbL	.
.	.	.	.	.	.	16aaJ)	.
.	.	4ryy	.	.	.	8gg'>L	.
.	.	.	.	.	.	8ff'>J	.
=235	=235	=235	=235	=235	=235	=235	=235
(>4.cc	.	2.G	.	2.B	.	4ee	.
.	.	.	.	.	.	4r	.
16ddL	.	.	.	.	.	.	.
16ccJ)	.	.	.	.	.	.	.
8bn'>L	.	.	.	.	.	4r	.
8cc'>J	.	.	.	.	.	.	.
=236	=236	=236	=236	=236	=236	=236	=236
2.cc	.	2.G	.	8BL 8e	.	(>4.bb	.
.	.	.	.	8B 8e	.	.	.
.	.	.	.	8B 8e	.	.	.
!	!	!	!	!	!	!LO:TX:iB:t=Cresc.	!
.	.	.	.	8B 8e	.	16cccL	.
.	.	.	.	.	.	16bbJ)	.
.	.	.	.	8B 8e	.	8aa'>L	.
.	.	.	.	8BJ 8e	.	8gg'>J	.
=237	=237	=237	=237	=237	=237	=237	=237
!LO:TX:iB:t=Cresc.	!	!	!	!LO:TX:iB:t=Cresc.	!	!	!
(>4.cc	.	2.A	.	8cL	.	4ff#	.
.	.	.	.	8c 8f#	.	.	.
.	.	.	.	8c 8f	.	4r	.
16ddL	.	.	.	8c 8f	.	.	.
16ccJ)	.	.	.	.	.	.	.
8bn'>L	.	.	.	8c 8f	.	4r	.
8cc'>J	.	.	.	8cJ 8f	.	.	.
=238	=238	=238	=238	=238	=238	=238	=238
(>2ee-	f	2.A	f	2.c 2.f#	f	[4eee-	f
.	.	.	.	.	.	8eeeL]	.
.	.	.	.	.	.	(>16ddd	.
.	.	.	.	.	.	16cccJ	.
4cc)	.	.	.	.	.	16bbL	.
.	.	.	.	.	.	16aa	.
.	.	.	.	.	.	16gg	.
.	.	.	.	.	.	16ff#J)	.
=239	=239	=239	=239	=239	=239	=239	=239
4dd	fp	4B	fp	4g	fp	16gg'>L	fp
.	.	.	.	.	.	16dd'>	.
.	.	.	.	.	.	16ee'>	.
.	.	.	.	.	.	16ff#'>J	.
4BB	.	4d	.	4B 4g	.	16gg'>L	.
.	.	.	.	.	.	16aa'>	.
.	.	.	.	.	.	16bb'>	.
.	.	.	.	.	.	16aa'>J	.
4r	.	4r	.	4r	.	16gg'>L	.
.	.	.	.	.	.	16dd'>	.
.	.	.	.	.	.	16ee'>	.
.	.	.	.	.	.	16ff'>J	.
=240	=240	=240	=240	=240	=240	=240	=240
2.r	.	2.r	.	2.r	.	16ggL	.
.	.	.	.	.	.	16aa	.
.	.	.	.	.	.	16bb	.
.	.	.	.	.	.	16aaJ	.
.	.	.	.	.	.	16ggL	.
!	!	!	!	!	!	!LO:TX:iB:t=Cresc.	!
.	.	.	.	.	.	16dd	.
.	.	.	.	.	.	16ee	.
.	.	.	.	.	.	16ff#J	.
.	.	.	.	.	.	16ggL	.
.	.	.	.	.	.	16aa	.
.	.	.	.	.	.	16bb	.
.	.	.	.	.	.	16aaJ	.
=241	=241	=241	=241	=241	=241	=241	=241
4r	.	4r	.	4r	.	16ggL	.
.	.	.	.	.	.	16dd	.
.	.	.	.	.	.	16ee	.
.	.	.	.	.	.	16ff#J	.
4r	.	4r	.	4r	.	16ggL	.
.	.	.	.	.	.	16aa	.
.	.	.	.	.	.	16bb	.
.	.	.	.	.	.	16aaJ	.
16r	.	16r	.	16r	.	16ggL	.
!LO:TX:iB:t=Cresc.	!	!LO:TX:iB:t=Cresc.	!	!LO:TX:iB:t=Cresc.	!	!	!
16DL	.	16DL	.	16dL	.	16dd	.
16E	.	16E	.	16e	.	16ee	.
16F#J	.	16F#J	.	16f#J	.	16ffJ	.
=242	=242	=242	=242	=242	=242	=242	=242
16GL	.	16GL	.	16gL	.	16ggL	.
16A	.	16A	.	16a	.	16aa	.
16B	.	16B	.	16b	.	16bb	.
16cJ	.	16cJ	.	16ccJ	.	16cccJ	.
16dL	.	16dL	.	16ddL	.	16dddL	.
16c	.	16c	.	16cc	.	16ccc	.
16B	.	16B	.	16b	.	16bb	.
16AJ	.	16AJ	.	16aJ	.	16aaJ	.
16GL	.	16GL	.	16gL	.	16ggL	.
16F	.	16F	.	16f	.	16ff	.
16E	.	16E	.	16e	.	16ee	.
16DJ	.	16DJ	.	16dJ	.	16ddJ	.
=243	=243	=243	=243	=243	=243	=243	=243
(>4.C	f	4.C	f	(<4.c	f	2.cc	f
16DL	.	(<16DL	.	16dL	.	.	.
16EJ	.	16EJ	.	16eJ	.	.	.
16FL	.	16FL	.	16fL	.	.	.
16G	.	16G	.	16g	.	.	.
16A	.	16A	.	16a	.	.	.
16BnJ)	.	16BnJ)	.	16bnJ)	.	.	.
=244	=244	=244	=244	=244	=244	=244	=244
8cL	.	8cL	.	8ccL	.	2.ggT	.
8C	.	8B	.	8e	.	.	.
8C	.	8B	.	8e	.	.	.
8C	.	8B	.	8e	.	.	.
8C	.	8B	.	8e	.	.	.
8CJ	.	8BJ	.	8eJ	.	.	.
=245	=245	=245	=245	=245	=245	=245	=245
4F'>	.	4A'<	fp	(<4f'<	.	4ff'>	fp
4r	.	(<4.A	.	4.c~<	.	4.f	.
4r	.	.	.	.	.	.	.
.	.	8G)	.	8c'<)	.	8e	.
=246	=246	=246	=246	=246	=246	=246	=246
2.r	.	(<8GL	.	(<8cL	.	(<8eL	.
.	.	8E)	.	8g)	.	8bJ)	.
.	.	(<8E	.	(<8g	.	(<8bL	.
.	.	8F)	.	8f)	.	8aJ)	.
.	.	(<8F	.	8f	.	(>8aL	.
.	.	8BJ)	.	8fJ	.	8ddJ)	.
=247	=247	=247	=247	=247	=247	=247	=247
2.r	.	(<8BL	.	8fL	.	(>8ddL	.
.	.	8AJ)	.	8f	.	8cc)	.
.	.	(>8AL	.	(<8f~<	.	(>8cc	.
.	.	8b)	.	8cc)	.	8ff)	.
.	.	(>8b	.	(<8cc	.	(>8ff	.
.	.	8gJ)	.	8bJ)	.	8eeJ)	.
=248	=248	=248	=248	=248	=248	=248	=248
2.r	.	(>8gL	.	(<8bL	.	(>8eeL	.
.	.	8eJ)	.	8gJ)	.	8bbJ)	.
.	.	4e	.	4g	.	4bb	.
.	.	4r	.	4r	.	4r	.
=249	=249	=249	=249	=249	=249	=249	=249
2.r	.	2.r	.	2.r	.	2.r	.
=250	=250	=250	=250	=250	=250	=250	=250
2.F	pp	2.c	pp	2.f	pp	[4a	pp
.	.	.	.	.	.	(<8aL_	.
.	.	.	.	.	.	16b	.
.	.	.	.	.	.	16aJ	.
.	.	.	.	.	.	8g'<L)	.
.	.	.	.	.	.	8a'<J	.
=251	=251	=251	=251	=251	=251	=251	=251
[2.BB	fp	[2.G	fp	[2.f	fp	[2.dd	fp
=252	=252	=252	=252	=252	=252	=252	=252
(<4BB_	.	(<4G_	.	4f]	.	(>4dd_	.
4C'<)	.	4A'<	.	4f'<	.	4cc'>)	.
4CC'<	.	4G'<	.	4B'<	.	4e'<	.
=253	=253	=253	=253	=253	=253	=253	=253
4FF'<	fp	4F'<)	fp	4A	.	4f'<	fp
4r	.	(>4.a	.	(>4.cc	.	(>4.ff	.
4r	.	.	.	.	.	.	.
.	.	8g)	.	8b)	.	8ee)	.
=254	=254	=254	=254	=254	=254	=254	=254
2.r	.	(>8gL	.	(>8bL	.	(>8eeL	.
.	.	8eJ)	.	(>8g)	.	8bb)	.
.	.	(>8eL	.	8g	.	(>8bb	.
.	.	8fJ)	.	8a)	.	8aa)	.
.	.	(>8fL	.	(>8a	.	(>8aa	.
.	.	8bJ)	.	8ffJ)	.	8dddJ)	.
=255	=255	=255	=255	=255	=255	=255	=255
2.r	.	(>8bL	.	8ffL	.	(>8ddL	.
.	.	8aJ)	.	8ff	.	8ccJ)	.
.	.	(>8AL	.	(>8ff	.	(>8ccL	.
.	.	8aJ)	.	(>8cc)	.	8ffJ)	.
.	.	(>8aL	.	8cc	.	(>8ffL	.
.	.	8gJ)	.	8bJ)	.	8eeJ)	.
=256	=256	=256	=256	=256	=256	=256	=256
2.r	.	(>8gL	.	(>8bL	.	(>8eeeL	.
.	.	8eJ)	.	8aaJ)	.	8bbbJ)	.
.	.	4e	.	4gg	.	4bbb	.
.	.	4r	.	4r	.	4r	.
=257	=257	=257	=257	=257	=257	=257	=257
2.r	.	2.r	.	2.r	.	2.r	.
=258	=258	=258	=258	=258	=258	=258	=258
2.F	sf	2.f	sf	2.c	sf	2.A- 2.a-	sf
=259	=259	=259	=259	=259	=259	=259	=259
2.D-	sf	2.d-	sf	2.f	sf	2.A- 2.a-	sf
=260	=260	=260	=260	=260	=260	=260	=260
2BBn	sf	2Bn	sf	2d 2f	sf	2A- 2a-	sf
4BB-	.	4B-	.	4d 4f	.	4A 4a	.
=261	=261	=261	=261	=261	=261	=261	=261
4AA'<	ff	4A'<	ff	4d'< 4f'<	ff	4An 4an	ff
4GG'<	.	4d'>	.	4g'<	.	4b'>	.
4C'<	.	4B'<	.	4e'<	.	4g'<	.
=262	=262	=262	=262	=262	=262	=262	=262
(>4.F	p	8AL	p	8fL	p	4f'<	.
.	.	8c	.	8AJ 8f	.	.	.
.	.	8c	.	8AL 8f	.	4r	.
16GL	.	8c	.	8AJ 8f	.	.	.
16FJ)	.	.	.	.	.	.	.
8E'>L	.	8c	.	8AL 8f	.	4r	.
8F'>J	.	8cJ	.	8AJ 8f	.	.	.
=263	=263	=263	=263	=263	=263	=263	=263
4FF	.	2.c	.	2.A 2.f	.	4r	p
4r	.	.	.	.	.	4a	.
4r	.	.	.	.	.	4aT	.
.	.	.	.	.	.	(<16qgL	.
.	.	.	.	.	.	16qaJ)	.
=264	=264	=264	=264	=264	=264	=264	=264
(>4.F	.	2.c	.	2.B 2.g	.	(>4cc	.
.	.	.	.	.	.	4b)	.
16GL	.	.	.	.	.	.	.
16FJ)	.	.	.	.	.	.	.
8E'>L	.	.	.	.	.	4r	.
8F'>J	.	.	.	.	.	.	.
=265	=265	=265	=265	=265	=265	=265	=265
!!Error: measure 265, staff 3 is underfilled: adding token 4ryy at end of measure to complete its duration.
4FF	.	2c	.	2.B 2.g	.	4r	.
4r	.	.	.	.	.	4ee	.
4r	.	4ryy	.	.	.	4eeT	.
.	.	.	.	.	.	(<16qddL	.
.	.	.	.	.	.	16qeeJ)	.
=266	=266	=266	=266	=266	=266	=266	=266
!!Error: measure 266, staff 3 is underfilled: adding token 4ryy at end of measure to complete its duration.
(>16GL	.	2c	.	8AL 8f	.	(>8ffL	.
16F	.	.	.	.	.	.	.
16E	.	.	.	8f 8a	.	8aaJ)	.
16FJ)	.	.	.	.	.	.	.
(>16GL	.	.	.	8f 8a	.	4cc	.
16F	.	.	.	.	.	.	.
16E	.	.	.	8f 8a	.	.	.
16FJ)	.	.	.	.	.	.	.
(>16GL	.	4ryy	.	8f 8a	.	4r	.
16F	.	.	.	.	.	.	.
16E	.	.	.	8fJ 8a	.	.	.
16FJ)	.	.	.	.	.	.	.
=267	=267	=267	=267	=267	=267	=267	=267
!!Error: measure 267, staff 3 is underfilled: adding token 4ryy at end of measure to complete its duration.
4FF	.	2c	.	2.f 2.a	.	(>16bbL	.
.	.	.	.	.	.	16aa	.
.	.	.	.	.	.	16gg	.
.	.	.	.	.	.	16aaJ)	.
4r	.	.	.	.	.	(>16bbL	.
.	.	.	.	.	.	16aa	.
.	.	.	.	.	.	16gg	.
.	.	.	.	.	.	16aaJ)	.
4r	.	4ryy	.	.	.	(>16bbL	.
.	.	.	.	.	.	16aa	.
.	.	.	.	.	.	16gg	.
.	.	.	.	.	.	16aaJ)	.
=268	=268	=268	=268	=268	=268	=268	=268
(>16GL	.	2.c	.	2.g 2.b	.	(>4ccc	.
16F	.	.	.	.	.	.	.
16E	.	.	.	.	.	.	.
16FJ)	.	.	.	.	.	.	.
(>16GL	.	.	.	.	.	4bb)	.
16F	.	.	.	.	.	.	.
(>16E	.	.	.	.	.	.	.
16FJ)	.	.	.	.	.	.	.
16GL	.	.	.	.	.	4r	.
16F	.	.	.	.	.	.	.
16E	.	.	.	.	.	.	.
16FJ)	.	.	.	.	.	.	.
=269	=269	=269	=269	=269	=269	=269	=269
4FF	.	2.c	.	2.g 2.b	.	(>16fffL	.
.	.	.	.	.	.	16eee	.
.	.	.	.	.	.	16ddd	.
.	.	.	.	.	.	16eeeJ)	.
4r	.	.	.	.	.	(>16fffL	.
.	.	.	.	.	.	16eee	.
.	.	.	.	.	.	16ddd	.
.	.	.	.	.	.	16eeeJ)	.
4r	.	.	.	.	.	(>16fffL	.
.	.	.	.	.	.	16eee	.
.	.	.	.	.	.	16ddd	.
.	.	.	.	.	.	16eeeJ)	.
=270	=270	=270	=270	=270	=270	=270	=270
4FF'<	.	4c'>	.	4f'< 4a'<	.	8fff'>L	.
.	.	.	.	.	.	16eee'>	.
.	.	.	.	.	.	16ddd'>J	.
4F'>	.	4c'>	.	4f'< 4a'<	.	16ccc'>L	.
.	.	.	.	.	.	16bb'>	.
.	.	.	.	.	.	16aa'>	.
.	.	.	.	.	.	16gg'>J	.
4r	.	4r	.	4r	.	16ff'>L	.
.	.	.	.	.	.	16ccc'>	.
.	.	.	.	.	.	16bb'>	.
.	.	.	.	.	.	16aa'>J	.
=271	=271	=271	=271	=271	=271	=271	=271
2.r	.	2.r	.	2.r	.	16ggL	.
!	!	!	!	!	!	!LO:TX:iB:t=Cresc.	!
.	.	.	.	.	.	16ff	.
.	.	.	.	.	.	16ee	.
.	.	.	.	.	.	16ddJ	.
.	.	.	.	.	.	16ccL	.
.	.	.	.	.	.	16aa	.
.	.	.	.	.	.	16gg	.
.	.	.	.	.	.	16ffJ	.
.	.	.	.	.	.	16eeL	.
.	.	.	.	.	.	16dd	.
.	.	.	.	.	.	16cc	.
.	.	.	.	.	.	16bJ	.
=272	=272	=272	=272	=272	=272	=272	=272
16r	.	16r	.	16r	.	16aL	.
16FL	.	16fL	.	16ffL	.	16ff	.
!LO:TX:iB:t=Cresc.	!	!LO:TX:iB:t=Cresc.	!	!LO:TX:iB:t=Cresc.	!	!	!
16E	.	16e	.	16ee	.	16ee	.
16DJ	.	16dJ	.	16ddJ	.	16ddJ	.
16CL	.	16cL	.	16ccL	.	16ccL	.
16BB	.	16B	.	16b	.	16b	.
16AA	.	16A	.	16a	.	16a	.
16GGJ	.	16GJ	.	16gJ	.	16gJ	.
16FFL	.	16FL	.	16fL	.	16fL	.
16F	.	16f	.	16ff	.	16ff	.
16E	.	16e	.	16ee	.	16ee	.
16DJ	.	16dJ	.	16ddJ	.	16ddJ	.
=273	=273	=273	=273	=273	=273	=273	=273
16CL	.	16cL	.	16ccL	.	16ccL	.
16BB	.	16B	.	16b	.	16b	.
16AA	.	16A	.	16a	.	16a	.
16GGJ	.	16GJ	.	(<16gJ	.	16gJ	.
(<16FFL	.	(<16FL	.	16fL	.	(<16fL	.
16EE	.	16E	.	16e	.	16e	.
16FF	.	16F	.	16f	.	16f	.
(<16EEJ)	.	16EJ	.	16eJ)	.	16eJ)	.
16FFL	.	16FL	.	(<16fL	.	(<16fL	.
16EE	.	16E	.	16e	.	16e	.
16FF	.	16F	.	16f	.	16f	.
16EEJ)	.	16EJ)	.	16eJ)	.	16eJ)	.
=274	=274	=274	=274	=274	=274	=274	=274
4FF'<	ff	4F'<	ff	4f'<	ff	4f'<	ff
4GG'<	.	4G'<	.	4g'<	.	4g'<	.
4AA'<	.	4A'<	.	4a'<	.	4a'<	.
=275	=275	=275	=275	=275	=275	=275	=275
4BB'<	.	4B'<	.	4B'<	.	4b'>	.
4C'<	.	4c'>	.	4c'<	.	4cc'>	.
4D'>	.	4d'>	.	4d'<	.	4dd'>	.
=276	=276	=276	=276	=276	=276	=276	=276
[2.E-	.	[2.e-	.	[2.e-	.	[2.ee-	.
=277	=277	=277	=277	=277	=277	=277	=277
2.E;_	.	2.e;;	.	2.e;__	.	2.ee;_	.
=278	=278	=278	=278	=278	=278	=278	=278
4DD'<	ff	4D'<	ff	4d'<	ff	4d'<	ff
4EE'<	.	4E'<	.	4e'<	.	4e'<	.
4FF#'<	.	4F#'<	.	4f#'<	.	4f#'<	.
=279	=279	=279	=279	=279	=279	=279	=279
4GG'<	.	4G'<	.	4G'<	.	4g'<	.
4AA'<	.	4A'<	.	4A'<	.	4a'<	.
4BB'<	.	4B'<	.	4B'<	.	4b'>	.
=280	=280	=280	=280	=280	=280	=280	=280
[2.C	sf	[2.c	sf	[2.c	sf	[2.cc	sf
=281	=281	=281	=281	=281	=281	=281	=281
2.C;_	.	2.c;	.	2.c;__	.	2.cc;_	.
=282	=282	=282	=282	=282	=282	=282	=282
2.r	.	2.r	pp	4G'<	.	8ff'>L	pp
.	.	.	.	.	.	(>16gg	.
.	.	.	.	.	.	16ffJ)	.
.	.	.	.	4A'<	.	8ee'>L	.
.	.	.	.	.	.	(>16ff	.
.	.	.	.	.	.	16eeJ)	.
.	.	.	.	4Bn'<	.	8ddL	.
.	.	.	.	.	.	(>16ee	.
.	.	.	.	.	.	16ddJ)	.
=283	=283	=283	=283	=283	=283	=283	=283
2.r	.	2.r	.	4c'<	.	8cc'>L	.
.	.	.	.	.	.	(>16dd	.
.	.	.	.	.	.	16ccJ)	.
.	.	.	.	4d'<	.	8bL	.
.	.	.	.	.	.	(>16cc	.
.	.	.	.	.	.	16bJ)	.
.	.	.	.	4e'<	.	8a'<L	.
.	.	.	.	.	.	(<16b	.
.	.	.	.	.	.	16aJ)	.
=284	=284	=284	=284	=284	=284	=284	=284
2.r	.	2.r	.	(<4f	.	(<4.g	.
.	.	.	.	4d)	.	.	.
.	.	.	.	.	.	16aL	.
.	.	.	.	.	.	16gJ)	.
.	.	.	.	4Bn	.	8f#'<L	.
.	.	.	.	.	.	8g'<J	.
=285	=285	=285	=285	=285	=285	=285	=285
(<4BBn	.	(<4.G	pp	4G	pp	(>4ddd	.
4D	.	.	.	4r	.	4bbn	.
.	.	16AL	.	.	.	.	.
.	.	16GJ)	.	.	.	.	.
4GG)	.	8F#'<L	.	4r	.	4ff)	.
.	.	8G'<J	.	.	.	.	.
=286	=286	=286	=286	=286	=286	=286	=286
4C	pp	4C'<	.	8b'>L	.	4ee	.
.	.	.	.	(>16cc	.	.	.
.	.	.	.	16bJ)	.	.	.
4r	.	4D'<	.	8a'<L	.	4r	.
.	.	.	.	(<16b	.	.	.
.	.	.	.	16aJ)	.	.	.
4r	.	4E'<	.	8gL	.	4r	.
.	.	.	.	(<16a	.	.	.
.	.	.	.	16gJ)	.	.	.
=287	=287	=287	=287	=287	=287	=287	=287
2.r	.	4F'<	.	8f'<L	.	2.r	.
.	.	.	.	(<16g	.	.	.
.	.	.	.	16fJ)	.	.	.
.	.	4G'<	.	8e'<L	.	.	.
.	.	.	.	(<16f	.	.	.
.	.	.	.	16eJ)	.	.	.
.	.	4A'<	.	8d'<L	.	.	.
.	.	.	.	(<16e	.	.	.
.	.	.	.	16dJ)	.	.	.
=288	=288	=288	=288	=288	=288	=288	=288
2.r	.	(<4B	.	(<4.c	.	2.r	.
.	.	4G	.	.	.	.	.
.	.	.	.	16dL	.	.	.
.	.	.	.	16c'<J)	.	.	.
.	.	4D)	.	8Bn'<L	.	.	.
.	.	.	.	8c'<J	.	.	.
=289	=289	=289	=289	=289	=289	=289	=289
(<4CC	.	(<4.C	.	4b	.	(>4gg	.
4EE	.	.	.	4r	.	4ee	.
.	.	16dL	.	.	.	.	.
.	.	16cJ)	.	.	.	.	.
4GG)	.	8Bn'<L	.	4r	.	4b)	.
.	.	8c'<J	.	.	.	.	.
=290	=290	=290	=290	=290	=290	=290	=290
4C	.	(<4c	.	(<4.c	.	4f 4a	.
4r	.	4A	.	.	.	4r	.
.	.	.	.	16dL	.	.	.
.	.	.	.	16cJ)	.	.	.
4r	.	4F)	.	8Bn'<L	.	4r	.
.	.	.	.	8c'<J	.	.	.
=291	=291	=291	=291	=291	=291	=291	=291
(<4CC	.	(>4.C	.	4a	.	(>4aa	.
4FF	.	.	.	4r	.	4ff	.
.	.	16dL)	.	.	.	.	.
.	.	16cJ	.	.	.	.	.
4AA)	.	8Bn'<L	.	4r	.	4cc)	.
.	.	8c'<J	.	.	.	.	.
=292	=292	=292	=292	=292	=292	=292	=292
4C	.	(>4g	.	2.r	.	(>4.b	.
!	!	!LO:TX:iB:t=Cresc.	!	!	!	!	!
4r	.	4e	.	.	.	.	.
!	!	!	!	!	!	!LO:TX:iB:t=Cresc.	!
.	.	.	.	.	.	16ccL	.
.	.	.	.	.	.	16bJ)	.
4r	.	4c)	.	.	.	8a'<L	.
.	.	.	.	.	.	8b'<J	.
=293	=293	=293	=293	=293	=293	=293	=293
(>4CC	.	(>4ee	.	(>4gg	.	(>4bb	.
!LO:TX:iB:t=Cresc.	!	!	!	!LO:TX:iB:t=Cresc.	!	!	!
4C	.	4b	.	4ee	.	4gg	.
4C#)	.	4g)	.	4bn)	.	4ee)	.
=294	=294	=294	=294	=294	=294	=294	=294
2.D	.	2.f	.	2.a	.	[(>4ff	.
.	.	.	.	.	.	8ffL]	.
.	.	.	.	.	.	16gg	.
.	.	.	.	.	.	16ffJ)	.
.	.	.	.	.	.	8ee'>L	.
.	.	.	.	.	.	8ff'>J	.
=295	=295	=295	=295	=295	=295	=295	=295
2.E	sf	2.B	sf	2.cc#	sf	2.gg	sf
=296	=296	=296	=296	=296	=296	=296	=296
!!Error: measure 296, staff 3 is underfilled: adding token 4ryy at end of measure to complete its duration.
2.F#	.	2e-	.	2.cc	.	[4aa	.
.	.	.	.	.	.	(>8aaL_	.
.	.	.	.	.	.	16bb	.
.	.	.	.	.	.	16aaJ)	.
.	.	4ryy	.	.	.	8gg'>L	.
.	.	.	.	.	.	8aa'>J	.
=297	=297	=297	=297	=297	=297	=297	=297
2.G	sf	2.d	sf	2.b	sf	2.bb	sf
=298	=298	=298	=298	=298	=298	=298	=298
2.A	.	2.g	.	2.ee-	.	[4ccc	.
.	.	.	.	.	.	(>8cccL__	.
.	.	.	.	.	.	16ddd	.
.	.	.	.	.	.	16cccJ)	.
.	.	.	.	.	.	8bb'>L	.
.	.	.	.	.	.	8ccc'>J	.
=299	=299	=299	=299	=299	=299	=299	=299
2.Bn	sf	2.f	sf	2.a-	sf	2.ddd	sf
=300	=300	=300	=300	=300	=300	=300	=300
2.c	pp	(>4.f	pp	(<4.an	pp	4r	pp
.	.	.	.	.	.	4cc	.
.	.	16gL	.	16bL	.	.	.
.	.	16fJ)	.	16aJ	.	.	.
.	.	8e'>L	.	8g'<L)	.	4cc	.
.	.	8f'>J	.	8a'<J	.	.	.
=301	=301	=301	=301	=301	=301	=301	=301
(<2C	.	(>2g	.	(>2b	.	(>4.cc	.
.	.	.	.	.	.	16ddL	.
.	.	.	.	.	.	16ccJ)	.
4CC)	.	4E)	.	4G)	.	8bn'>L	.
.	.	.	.	.	.	8cc'>J	.
=302	=302	=302	=302	=302	=302	=302	=302
(<4.FF	.	4F'<	pp	4A'<	pp	4f	.
.	.	4C'<	.	4A'<	.	4r	.
16GGL	.	.	.	.	.	.	.
16FFJ)	.	.	.	.	.	.	.
8EE'<L	.	4C'<	.	4A'<	.	4r	.
8FF'<J	.	.	.	.	.	.	.
=303	=303	=303	=303	=303	=303	=303	=303
2.FF	.	(<2.D-	.	2.Bn	.	(<16fL	pp
.	.	.	.	.	.	16e	.
.	.	.	.	.	.	16d	.
.	.	.	.	.	.	16eJ	.
.	.	.	.	.	.	16fL	.
.	.	.	.	.	.	16e	.
.	.	.	.	.	.	16d	.
.	.	.	.	.	.	16eJ	.
.	.	.	.	.	.	16fL	.
.	.	.	.	.	.	16e	.
.	.	.	.	.	.	16d	.
.	.	.	.	.	.	16eJ)	.
=304	=304	=304	=304	=304	=304	=304	=304
(<4.FF	.	2.C	.	4A'<	.	4f'<	.
.	.	.	.	4f'<	.	4a'<	.
16GGL	.	.	.	.	.	.	.
16FFJ)	.	.	.	.	.	.	.
8EE'<L	.	.	.	4f'<	.	4a'<	.
8FF'<J	.	.	.	.	.	.	.
=305	=305	=305	=305	=305	=305	=305	=305
[2.FF	.	2.D-)	.	(<16fL	.	(>2.b	.
.	.	.	.	16e	.	.	.
.	.	.	.	16d	.	.	.
.	.	.	.	16eJ	.	.	.
.	.	.	.	16fL	.	.	.
.	.	.	.	16e	.	.	.
.	.	.	.	16d	.	.	.
.	.	.	.	16eJ	.	.	.
.	.	.	.	16fL	.	.	.
.	.	.	.	16e	.	.	.
.	.	.	.	16d)	.	.	.
.	.	.	.	16eJ	.	.	.
=306	=306	=306	=306	=306	=306	=306	=306
4FF]	.	4C	.	4f	.	4a)	.
4r	.	4f'>	.	8r	.	8r	.
.	.	.	.	(<16bL	.	(>16dd-L	.
.	.	.	.	16aJ)	.	16ccJ)	.
4r	.	4f'>	.	8g'<L	.	8b'>L	.
.	.	.	.	8a'<J	.	8cc'>J	.
=307	=307	=307	=307	=307	=307	=307	=307
2.r	.	(>16fL	.	(>2.b	.	(>2.dd-	.
.	.	16e	.	.	.	.	.
.	.	16d	.	.	.	.	.
.	.	16eJ	.	.	.	.	.
.	.	16fL	.	.	.	.	.
.	.	16e	.	.	.	.	.
.	.	16d	.	.	.	.	.
.	.	16eJ	.	.	.	.	.
.	.	16fL	.	.	.	.	.
.	.	16e	.	.	.	.	.
.	.	16d)	.	.	.	.	.
.	.	16eJ	.	.	.	.	.
=308	=308	=308	=308	=308	=308	=308	=308
4r	pp	(>4f	pp	4a)	pp	4cc)	pp
4FF	.	4cc)	.	8r	.	8r	.
.	.	.	.	(>16ggL	.	(>16bbL	.
.	.	.	.	16ffJ)	.	16aaJ)	.
4FF	.	4cc'>	.	8ee'>L	.	8gg'>L	.
.	.	.	.	8ff'>J	.	8aa'>J	.
=309	=309	=309	=309	=309	=309	=309	=309
!LO:TX:iB:t=Cresc.	!	!LO:TX:iB:t=Cresc.	!	!LO:TX:iB:t=Cresc.	!	!LO:TX:iB:t=Cresc.	!
(<16FFL	.	2.dd-	.	2.gg	.	2.bb	.
16EE	.	.	.	.	.	.	.
16DD	.	.	.	.	.	.	.
16EEJ	.	.	.	.	.	.	.
16FFL	.	.	.	.	.	.	.
16EE	.	.	.	.	.	.	.
16DD	.	.	.	.	.	.	.
16EEJ	.	.	.	.	.	.	.
16FFL	.	.	.	.	.	.	.
16EE	.	.	.	.	.	.	.
16DD	.	.	.	.	.	.	.
16EEJ)	.	.	.	.	.	.	.
=310	=310	=310	=310	=310	=310	=310	=310
4FF	sf	4cc	sf	4ff	sf	(>8aaL	sf
.	.	.	.	.	.	16bb	.
.	.	.	.	.	.	16aaJ)	.
4r	.	4r	.	4r	.	(>8gg'>L	.
.	.	.	.	.	.	8aa'>J)	.
8E'>L	.	8e'>L	.	8ee'>L	.	8ee'>L	.
8F'>J	.	8f'>J	.	8ff'>J	.	8ff'>J	.
=311	=311	=311	=311	=311	=311	=311	=311
4C	sf	4c	sf	4cc	sf	(>8ccL	sf
.	.	.	.	.	.	16dd	.
.	.	.	.	.	.	16ccJ)	.
4r	.	4r	.	4r	.	8bn'>L	.
.	.	.	.	.	.	8cc'>J	.
8GG#'<L	.	8G#'<L	.	8g#'<L	.	8g#'<L	.
8AA'<J	.	8A'<J	.	8a'<J	.	8a'<J	.
=312	=312	=312	=312	=312	=312	=312	=312
4FF	sf	4F	sf	4f	sf	(<8fL	sf
.	.	.	.	.	.	16g	.
.	.	.	.	.	.	16fJ)	.
4r	.	4r	.	4r	.	8e'<L	.
.	.	.	.	.	.	8f'<J	.
8CC'<L	.	8C'<L	.	8c'<L	.	8c'<L	.
8EE'<J	.	8E'<J	.	8e'<J	.	8e'<J	.
=313	=313	=313	=313	=313	=313	=313	=313
4FF'<	.	4F'<	.	4f'<	.	4f'<	.
4FF'<	.	4F'<	.	4A'< 4f'<	.	4a'> 4ff'>	.
4r	.	4r	.	4r	.	4r	.
==	==	==	==	==	==	==	==
*-	*-	*-	*-	*-	*-	*-	*-
!!!RDF**kern: > = above
!!!RDF**kern: < = below
